darkha03/Naruto_Jutsu_Detection/dataset/jutsu_dataset_hands.csv
h1_joint_0_x,h1_joint_0_y,h1_joint_0_z,h1_joint_1_x,h1_joint_1_y,h1_joint_1_z,h1_joint_2_x,h1_joint_2_y,h1_joint_2_z,h1_joint_3_x,h1_joint_3_y,h1_joint_3_z,h1_joint_4_x,h1_joint_4_y,h1_joint_4_z,h1_joint_5_x,h1_joint_5_y,h1_joint_5_z,h1_joint_6_x,h1_joint_6_y,h1_joint_6_z,h1_joint_7_x,h1_joint_7_y,h1_joint_7_z,h1_joint_8_x,h1_joint_8_y,h1_joint_8_z,h1_joint_9_x,h1_joint_9_y,h1_joint_9_z,h1_joint_10_x,h1_joint_10_y,h1_joint_10_z,h1_joint_11_x,h1_joint_11_y,h1_joint_11_z,h1_joint_12_x,h1_joint_12_y,h1_joint_12_z,h1_joint_13_x,h1_joint_13_y,h1_joint_13_z,h1_joint_14_x,h1_joint_14_y,h1_joint_14_z,h1_joint_15_x,h1_joint_15_y,h1_joint_15_z,h1_joint_16_x,h1_joint_16_y,h1_joint_16_z,h1_joint_17_x,h1_joint_17_y,h1_joint_17_z,h1_joint_18_x,h1_joint_18_y,h1_joint_18_z,h1_joint_19_x,h1_joint_19_y,h1_joint_19_z,h1_joint_20_x,h1_joint_20_y,h1_joint_20_z,h2_joint_0_x,h2_joint_0_y,h2_joint_0_z,h2_joint_1_x,h2_joint_1_y,h2_joint_1_z,h2_joint_2_x,h2_joint_2_y,h2_joint_2_z,h2_joint_3_x,h2_joint_3_y,h2_joint_3_z,h2_joint_4_x,h2_joint_4_y,h2_joint_4_z,h2_joint_5_x,h2_joint_5_y,h2_joint_5_z,h2_joint_6_x,h2_joint_6_y,h2_joint_6_z,h2_joint_7_x,h2_joint_7_y,h2_joint_7_z,h2_joint_8_x,h2_joint_8_y,h2_joint_8_z,h2_joint_9_x,h2_joint_9_y,h2_joint_9_z,h2_joint_10_x,h2_joint_10_y,h2_joint_10_z,h2_joint_11_x,h2_joint_11_y,h2_joint_11_z,h2_joint_12_x,h2_joint_12_y,h2_joint_12_z,h2_joint_13_x,h2_joint_13_y,h2_joint_13_z,h2_joint_14_x,h2_joint_14_y,h2_joint_14_z,h2_joint_15_x,h2_joint_15_y,h2_joint_15_z,h2_joint_16_x,h2_joint_16_y,h2_joint_16_z,h2_joint_17_x,h2_joint_17_y,h2_joint_17_z,h2_joint_18_x,h2_joint_18_y,h2_joint_18_z,h2_joint_19_x,h2_joint_19_y,h2_joint_19_z,h2_joint_20_x,h2_joint_20_y,h2_joint_20_z,label,image_file
0.37606656551361084,0.4957965016365051,3.6845404505214674e-09,0.3883289694786072,0.38979366421699524,0.049126021564006805,0.4145027995109558,0.30006495118141174,0.051020264625549316,0.4494803845882416,0.2511415183544159,0.038210488855838776,0.48782482743263245,0.23387683928012848,0.02653340995311737,0.40335410833358765,0.23264114558696747,0.014146622270345688,0.4496479034423828,0.10315448045730591,-0.004437807947397232,0.4932970702648163,0.11664123833179474,-0.011169693432748318,0.5053754448890686,0.15546037256717682,-0.01046786829829216,0.4115407168865204,0.24225455522537231,-0.024880405515432358,0.4992513656616211,0.12205810844898224,-0.0383688248693943,0.5251834988594055,0.17363321781158447,-0.03466318920254707,0.5134322047233582,0.225315660238266,-0.027985958382487297,0.4301077425479889,0.2734015882015228,-0.06058889254927635,0.5382764339447021,0.19584861397743225,-0.06533529609441757,0.5489434599876404,0.26045289635658264,-0.04529564827680588,0.5281496047973633,0.3023020327091217,-0.03138050064444542,0.4540363848209381,0.31742623448371887,-0.09332626312971115,0.5395538210868835,0.30123937129974365,-0.09210560470819473,0.5457305908203125,0.34878888726234436,-0.07375416159629822,0.525310754776001,0.37580063939094543,-0.05955831706523895,0.49405741691589355,0.8344099521636963,-8.298749207824585e-07,0.47224023938179016,0.7249155044555664,0.021973183378577232,0.45924240350723267,0.6310492753982544,0.018124418333172798,0.44942885637283325,0.5565111041069031,0.007935773581266403,0.43755120038986206,0.5101302862167358,-0.006501209456473589,0.5210177898406982,0.5367812514305115,-0.01806662604212761,0.4714711904525757,0.40719351172447205,-0.03575688228011131,0.41987085342407227,0.43126317858695984,-0.03995499014854431,0.3980032205581665,0.47832876443862915,-0.04074111953377724,0.5255976915359497,0.5606995224952698,-0.04074674844741821,0.4429195821285248,0.4392260015010834,-0.05616215988993645,0.383298397064209,0.4828951060771942,-0.052160751074552536,0.3568643629550934,0.5421633720397949,-0.04924079403281212,0.5134734511375427,0.5999983549118042,-0.06113339960575104,0.4204738140106201,0.4892696142196655,-0.07850715517997742,0.368613600730896,0.52982497215271,-0.07358410209417343,0.3510168194770813,0.5803982615470886,-0.07150685042142868,0.4912246763706207,0.6442736983299255,-0.07872885465621948,0.3987106680870056,0.5924354791641235,-0.09674206376075745,0.36410945653915405,0.6304739117622375,-0.09596835821866989,0.3596818447113037,0.675958514213562,-0.09441202133893967,Rat,Rat_0.jpg
0.4885861873626709,0.7374897003173828,-9.91953925222333e-07,0.48687124252319336,0.6426560282707214,0.030584555119276047,0.47166574001312256,0.5571048259735107,0.025250552222132683,0.45323747396469116,0.4854726791381836,0.009835343807935715,0.43307942152023315,0.43585729598999023,-0.011172275058925152,0.5445735454559326,0.46346044540405273,-0.005623511970043182,0.47513046860694885,0.346579372882843,-0.01915821246802807,0.4143436551094055,0.3726952075958252,-0.022148527204990387,0.3840073347091675,0.4218686521053314,-0.021668951958417892,0.5478672981262207,0.482440710067749,-0.034222837537527084,0.44623610377311707,0.3761197328567505,-0.04329899325966835,0.3859316110610962,0.4211883544921875,-0.040631771087646484,0.3556337356567383,0.48225781321525574,-0.0397808775305748,0.5331254601478577,0.5121521949768066,-0.05955673009157181,0.4248243570327759,0.435482919216156,-0.07261047512292862,0.37463444471359253,0.5033013224601746,-0.06710180640220642,0.3562144637107849,0.5705567598342896,-0.06422454118728638,0.507818877696991,0.5467836856842041,-0.08176884800195694,0.41398337483406067,0.4971923232078552,-0.0958782508969307,0.375753253698349,0.5428460240364075,-0.0894288420677185,0.36397451162338257,0.5925524234771729,-0.08282968401908875,0.3923538029193878,0.4083920121192932,-9.838736758638333e-08,0.40132829546928406,0.30666661262512207,0.04573905095458031,0.4234464764595032,0.2309398353099823,0.0471121184527874,0.45054706931114197,0.1922924518585205,0.03427337482571602,0.4800637662410736,0.17751583456993103,0.022382119670510292,0.4116564989089966,0.17448672652244568,0.012897305190563202,0.4621748924255371,0.06567500531673431,0.00041354517452418804,0.49787071347236633,0.09422595053911209,0.0007341554155573249,0.5032530426979065,0.13949742913246155,0.0049790446646511555,0.42445093393325806,0.17967171967029572,-0.024933798238635063,0.4911918640136719,0.06325925886631012,-0.035291217267513275,0.5132858157157898,0.10764852911233902,-0.027929533272981644,0.5023810863494873,0.15766729414463043,-0.020976945757865906,0.4423075020313263,0.20457272231578827,-0.05997515842318535,0.5312890410423279,0.1286298781633377,-0.06695724278688431,0.5409581661224365,0.18623915314674377,-0.04979535564780235,0.522493302822113,0.2281060665845871,-0.03872934728860855,0.46769198775291443,0.2473110556602478,-0.09211014956235886,0.5447372794151306,0.23532189428806305,-0.09667625278234482,0.5492861866950989,0.27926674485206604,-0.08302433043718338,0.5270774960517883,0.3064675033092499,-0.07277273386716843,Rat,Rat_1.jpg
0.3914278745651245,0.46735861897468567,-1.1379906794672934e-08,0.40114855766296387,0.35338184237480164,0.04503200948238373,0.4214741885662079,0.2656344473361969,0.04392201825976372,0.4513653516769409,0.21696674823760986,0.02854960598051548,0.4853006899356842,0.2001115083694458,0.014539475552737713,0.4135977029800415,0.19319665431976318,0.009459950029850006,0.46416014432907104,0.06390048563480377,-0.006195064168423414,0.5087170004844666,0.09048832952976227,-0.007194556761533022,0.5202868580818176,0.13946115970611572,-0.0028811695519834757,0.43033546209335327,0.1991835981607437,-0.028968635946512222,0.5119695663452148,0.0698423683643341,-0.04171634092926979,0.5376336574554443,0.12311507016420364,-0.03409295901656151,0.5257723927497864,0.1831417679786682,-0.024715404957532883,0.45171359181404114,0.22896018624305725,-0.0641670897603035,0.5522693395614624,0.15881632268428802,-0.06701245903968811,0.5570673942565918,0.22764423489570618,-0.04148680716753006,0.5334781408309937,0.27117377519607544,-0.024448702111840248,0.4778021574020386,0.2783214747905731,-0.09708382934331894,0.5580251812934875,0.262973815202713,-0.0941539779305458,0.5579882860183716,0.31221386790275574,-0.07149112224578857,0.5304345488548279,0.3403138518333435,-0.05419734865427017,0.0,0.0,0.0,0.0,0.0,0.0,0.0,0.0,0.0,0.0,0.0,0.0,0.0,0.0,0.0,0.0,0.0,0.0,0.0,0.0,0.0,0.0,0.0,0.0,0.0,0.0,0.0,0.0,0.0,0.0,0.0,0.0,0.0,0.0,0.0,0.0,0.0,0.0,0.0,0.0,0.0,0.0,0.0,0.0,0.0,0.0,0.0,0.0,0.0,0.0,0.0,0.0,0.0,0.0,0.0,0.0,0.0,0.0,0.0,0.0,0.0,0.0,0.0,Rat,Rat_2.jpg
0.3923424780368805,0.5124244689941406,3.1545386303122314e-09,0.39840441942214966,0.4053824841976166,0.023251859471201897,0.42008256912231445,0.31536173820495605,0.012563851661980152,0.45810866355895996,0.26021796464920044,-0.005321747623383999,0.49332547187805176,0.2332802563905716,-0.019815905019640923,0.4035077393054962,0.24543991684913635,-0.02616962045431137,0.45040163397789,0.10070373117923737,-0.04742288216948509,0.4968455135822296,0.11933481693267822,-0.045753657817840576,0.5062487125396729,0.16750872135162354,-0.036730118095874786,0.41864079236984253,0.2642889618873596,-0.050990354269742966,0.524193525314331,0.1710883527994156,-0.07012037932872772,0.5398415327072144,0.24038970470428467,-0.06034762039780617,0.5164725184440613,0.2891470193862915,-0.046721696853637695,0.4421781003475189,0.2993732988834381,-0.0724463164806366,0.5415516495704651,0.2536062002182007,-0.08078281581401825,0.540573000907898,0.3211742341518402,-0.055727921426296234,0.5127526521682739,0.3548177480697632,-0.03626870736479759,0.46524664759635925,0.3437972962856293,-0.09224101155996323,0.5398043394088745,0.3136884272098541,-0.08984347432851791,0.5402892827987671,0.35876399278640747,-0.06519228219985962,0.5154544115066528,0.38445594906806946,-0.04505414515733719,0.0,0.0,0.0,0.0,0.0,0.0,0.0,0.0,0.0,0.0,0.0,0.0,0.0,0.0,0.0,0.0,0.0,0.0,0.0,0.0,0.0,0.0,0.0,0.0,0.0,0.0,0.0,0.0,0.0,0.0,0.0,0.0,0.0,0.0,0.0,0.0,0.0,0.0,0.0,0.0,0.0,0.0,0.0,0.0,0.0,0.0,0.0,0.0,0.0,0.0,0.0,0.0,0.0,0.0,0.0,0.0,0.0,0.0,0.0,0.0,0.0,0.0,0.0,Rat,Rat_3.jpg
0.35444968938827515,0.4584788680076599,2.3707574570153156e-08,0.37008243799209595,0.3399903178215027,0.05491231754422188,0.39807742834091187,0.24715085327625275,0.05633033812046051,0.43477851152420044,0.1968751847743988,0.044004179537296295,0.46965914964675903,0.18786191940307617,0.03370589017868042,0.3967905342578888,0.17008638381958008,0.0005160822183825076,0.4547388553619385,0.02556207776069641,-0.013769757002592087,0.49975457787513733,0.05761100351810455,-0.011412781663239002,0.5040292143821716,0.11224277317523956,-0.003498449455946684,0.4103200435638428,0.19289684295654297,-0.03943957760930061,0.527331531047821,0.10905911028385162,-0.054236024618148804,0.5419279932975769,0.1876554787158966,-0.048745136708021164,0.5106501579284668,0.24130307137966156,-0.03961222618818283,0.429944783449173,0.2338268905878067,-0.07300257682800293,0.5433320999145508,0.17626893520355225,-0.07378906011581421,0.5426619648933411,0.2574136257171631,-0.04754314944148064,0.510313868522644,0.29939863085746765,-0.02926390804350376,0.4534311890602112,0.2830559015274048,-0.10224384069442749,0.5383568406105042,0.25357896089553833,-0.0970216765999794,0.5389865636825562,0.304869681596756,-0.07212354242801666,0.5103951096534729,0.3305312395095825,-0.052010174840688705,0.0,0.0,0.0,0.0,0.0,0.0,0.0,0.0,0.0,0.0,0.0,0.0,0.0,0.0,0.0,0.0,0.0,0.0,0.0,0.0,0.0,0.0,0.0,0.0,0.0,0.0,0.0,0.0,0.0,0.0,0.0,0.0,0.0,0.0,0.0,0.0,0.0,0.0,0.0,0.0,0.0,0.0,0.0,0.0,0.0,0.0,0.0,0.0,0.0,0.0,0.0,0.0,0.0,0.0,0.0,0.0,0.0,0.0,0.0,0.0,0.0,0.0,0.0,Rat,Rat_4.jpg
0.49133190512657166,0.7092338800430298,-9.729260455060285e-07,0.46018505096435547,0.6072314977645874,0.019259687513113022,0.43653106689453125,0.5038628578186035,0.009142515249550343,0.41782090067863464,0.41795650124549866,-0.008363967761397362,0.40402519702911377,0.357975572347641,-0.028598207980394363,0.48895135521888733,0.39970916509628296,-0.018662286922335625,0.44460341334342957,0.2659547030925751,-0.04745272919535637,0.39816710352897644,0.2949923872947693,-0.06226799264550209,0.3767778277397156,0.35277071595191956,-0.06992245465517044,0.5080652236938477,0.4275529086589813,-0.043157048523426056,0.4213698208332062,0.3148668706417084,-0.06379463523626328,0.3689512014389038,0.3744737505912781,-0.06467758864164352,0.3563788831233978,0.44536441564559937,-0.06559135764837265,0.5097498893737793,0.47475194931030273,-0.06631188839673996,0.41109734773635864,0.36617469787597656,-0.08459633588790894,0.36382797360420227,0.43218791484832764,-0.07508730888366699,0.3576362133026123,0.4980972409248352,-0.0713215321302414,0.49782368540763855,0.527367115020752,-0.08764234185218811,0.39045608043670654,0.4848303198814392,-0.11088854819536209,0.36636215448379517,0.535500168800354,-0.10973668098449707,0.3788840174674988,0.5845236778259277,-0.10681407898664474,0.35277312994003296,0.39597514271736145,-7.85095721766993e-08,0.3692494034767151,0.28507623076438904,0.04562412202358246,0.39196115732192993,0.19374679028987885,0.04489359259605408,0.4215122163295746,0.14468814432621002,0.029859650880098343,0.46188658475875854,0.1286449283361435,0.016623327508568764,0.3749983012676239,0.12035177648067474,0.009591269306838512,0.41848257184028625,0.010152310132980347,-0.009686912409961224,0.4540707767009735,0.05268575996160507,-0.01677396334707737,0.46312132477760315,0.09779258817434311,-0.018415670841932297,0.38049423694610596,0.12133106589317322,-0.029550710693001747,0.4696321487426758,0.00699867308139801,-0.047453250735998154,0.49434584379196167,0.07057410478591919,-0.04651249945163727,0.47907647490501404,0.12608659267425537,-0.04266674071550369,0.3978828191757202,0.15146036446094513,-0.0654180496931076,0.5080875158309937,0.0713244080543518,-0.0785512700676918,0.5211533904075623,0.14424507319927216,-0.062077250331640244,0.4969397187232971,0.18804988265037537,-0.04972151294350624,0.42409807443618774,0.19795487821102142,-0.09809465706348419,0.5197677612304688,0.1942180097103119,-0.10361819714307785,0.5264650583267212,0.24497616291046143,-0.08795752376317978,0.500548779964447,0.26758986711502075,-0.07572486251592636,Rat,Rat_5.jpg
0.49567174911499023,0.705021858215332,-8.836394158606709e-07,0.4633924961090088,0.5985299348831177,0.019764302298426628,0.44324368238449097,0.4904397428035736,0.011415660381317139,0.43041759729385376,0.40807488560676575,-0.0031706884037703276,0.4172058701515198,0.34829452633857727,-0.0203680619597435,0.49429428577423096,0.4049071967601776,-0.023325534537434578,0.45040130615234375,0.28139805793762207,-0.05202341079711914,0.40701228380203247,0.30471453070640564,-0.06686630845069885,0.3903985023498535,0.3565636873245239,-0.07522331923246384,0.5090439915657043,0.4349105656147003,-0.048117950558662415,0.4247918725013733,0.3331887722015381,-0.06905429065227509,0.3840964138507843,0.3944091796875,-0.06859206408262253,0.3829571306705475,0.46115684509277344,-0.0703248679637909,0.5057379007339478,0.4831780195236206,-0.07158955931663513,0.41614237427711487,0.382376104593277,-0.09211722761392593,0.3771929144859314,0.444831907749176,-0.08157168328762054,0.3759044408798218,0.5081996917724609,-0.07774481922388077,0.4893694221973419,0.5357313752174377,-0.09301021695137024,0.39050284028053284,0.4808896780014038,-0.11840443313121796,0.3583124577999115,0.5248959064483643,-0.11713935434818268,0.36082708835601807,0.5718182325363159,-0.1150539368391037,0.36774536967277527,0.42778128385543823,1.0565556429753542e-08,0.4056291878223419,0.3199673891067505,0.0520341731607914,0.42803534865379333,0.23548588156700134,0.05431725084781647,0.454144686460495,0.1833229809999466,0.03983462229371071,0.47991010546684265,0.14750342071056366,0.029180433601140976,0.3867730498313904,0.13726361095905304,0.02480202727019787,0.4197455942630768,0.026301637291908264,0.008054259233176708,0.46626654267311096,0.05812069773674011,0.002364463172852993,0.47920721769332886,0.10108241438865662,0.002009378978982568,0.37937629222869873,0.14048057794570923,-0.019562385976314545,0.45590904355049133,0.008671611547470093,-0.037098437547683716,0.4960877597332001,0.06402269005775452,-0.037326645106077194,0.48989903926849365,0.12342698127031326,-0.033201780170202255,0.3902834355831146,0.1717589795589447,-0.06077996641397476,0.49109184741973877,0.07443692535161972,-0.0704290047287941,0.5198947787284851,0.1478484869003296,-0.048967987298965454,0.49924978613853455,0.19444039463996887,-0.03324831649661064,0.41771847009658813,0.21704769134521484,-0.09943877160549164,0.5137389302253723,0.1978360414505005,-0.10042726248502731,0.5253012776374817,0.24843211472034454,-0.07972342520952225,0.49589020013809204,0.27611222863197327,-0.06383644789457321,Rat,Rat_6.jpg
0.5083620548248291,0.7957675457000732,-9.430328304915747e-07,0.46858149766921997,0.6799482107162476,0.021817095577716827,0.45080292224884033,0.5662803053855896,0.017356833443045616,0.4508243799209595,0.46901726722717285,0.004408238921314478,0.44962480664253235,0.3954158425331116,-0.010363240726292133,0.4919523298740387,0.5003558397293091,-0.0028365592006593943,0.4595454931259155,0.3863706588745117,-0.03275996446609497,0.42472270131111145,0.43490058183670044,-0.04574073851108551,0.4070257246494293,0.5038444399833679,-0.04968373477458954,0.5162202715873718,0.5364471077919006,-0.02837630920112133,0.44875824451446533,0.4468669891357422,-0.05616079270839691,0.40015488862991333,0.5234944224357605,-0.05997922644019127,0.38607126474380493,0.5996378064155579,-0.05821383371949196,0.5244516730308533,0.5941640138626099,-0.05395917594432831,0.44460970163345337,0.49639174342155457,-0.08069144934415817,0.3928467035293579,0.5682225227355957,-0.07413193583488464,0.38141268491744995,0.639301061630249,-0.06696833670139313,0.5176755785942078,0.6586764454841614,-0.07684928178787231,0.43126431107521057,0.6161433458328247,-0.10523578524589539,0.40512365102767944,0.6656121015548706,-0.10621967166662216,0.4137415885925293,0.7145919799804688,-0.1019587442278862,0.36876803636550903,0.541658878326416,2.288675347017488e-07,0.39234673976898193,0.4502517580986023,0.037147168070077896,0.421482115983963,0.36711981892585754,0.03181274235248566,0.456682413816452,0.32385027408599854,0.012814677320420742,0.48768046498298645,0.3065779209136963,-0.0038271101657301188,0.39383673667907715,0.2853606045246124,0.004002911038696766,0.4496271014213562,0.16220448911190033,-0.018900150433182716,0.4922744929790497,0.19006341695785522,-0.02738523669540882,0.5000549554824829,0.24366487562656403,-0.026288075372576714,0.39573198556900024,0.2982605993747711,-0.0330815389752388,0.48948433995246887,0.1864739954471588,-0.052697550505399704,0.5194653868675232,0.24805092811584473,-0.051868509501218796,0.5082299709320068,0.30621203780174255,-0.04530215635895729,0.4127746820449829,0.3330872356891632,-0.06787938624620438,0.5238624215126038,0.2678941488265991,-0.0796646773815155,0.5367247462272644,0.3407031297683716,-0.06063082814216614,0.5135059356689453,0.3870907425880432,-0.0445086844265461,0.43933624029159546,0.3819989264011383,-0.10078325867652893,0.5309409499168396,0.35755297541618347,-0.10352538526058197,0.5401219725608826,0.4081965982913971,-0.08294691890478134,0.5178488492965698,0.4411879777908325,-0.0656086876988411,Rat,Rat_7.jpg
0.5093444585800171,0.9174137115478516,-7.457824153789261e-07,0.48416730761528015,0.8134329319000244,0.02544640563428402,0.46966367959976196,0.7246493101119995,0.021022332832217216,0.45987027883529663,0.6570683717727661,0.009567874483764172,0.44861724972724915,0.6071255803108215,-0.006078124046325684,0.4984801709651947,0.6389120817184448,-0.020976562052965164,0.4496956467628479,0.5333552360534668,-0.045945536345243454,0.40678662061691284,0.5399309396743774,-0.05657554045319557,0.3857400119304657,0.5743457674980164,-0.06144164130091667,0.5076234936714172,0.6665933132171631,-0.04731234163045883,0.42113369703292847,0.573322594165802,-0.06659125536680222,0.37064462900161743,0.6154612302780151,-0.06600355356931686,0.35111624002456665,0.6745156049728394,-0.06669659912586212,0.5038221478462219,0.7146158814430237,-0.07148325443267822,0.4157370626926422,0.6129041910171509,-0.09559223800897598,0.3671562671661377,0.656536877155304,-0.09222831577062607,0.3491145372390747,0.7146902084350586,-0.09097617119550705,0.4888865351676941,0.7680198550224304,-0.09210717678070068,0.3975211977958679,0.7319592833518982,-0.12163496762514114,0.3658469319343567,0.7685713171958923,-0.12636806070804596,0.3603583872318268,0.8122420310974121,-0.12766394019126892,0.3552290201187134,0.5743615627288818,1.0851481135887298e-07,0.37596291303634644,0.4858933091163635,0.04131217300891876,0.409375935792923,0.41646456718444824,0.03742653876543045,0.4515634775161743,0.37336546182632446,0.022777481004595757,0.4829252064228058,0.34100955724716187,0.008014034479856491,0.390115350484848,0.3645473122596741,-0.020348625257611275,0.4174753725528717,0.2329869419336319,-0.04459866136312485,0.44747814536094666,0.2277260422706604,-0.05491705983877182,0.4587901532649994,0.23897157609462738,-0.057186421006917953,0.38987651467323303,0.38498765230178833,-0.05728578567504883,0.4988110065460205,0.3126015067100525,-0.08124449849128723,0.5165460109710693,0.37753039598464966,-0.08102433383464813,0.49587878584861755,0.42358753085136414,-0.07570963352918625,0.40291184186935425,0.4319283068180084,-0.08862314373254776,0.5197282433509827,0.3882407546043396,-0.10279203951358795,0.5235024690628052,0.4605872333049774,-0.08164796978235245,0.49547281861305237,0.4956032633781433,-0.06462293863296509,0.43167853355407715,0.48357468843460083,-0.11664284020662308,0.5210535526275635,0.4575948417186737,-0.12457647174596786,0.5279669165611267,0.5042718648910522,-0.10527744889259338,0.5057395696640015,0.5316455364227295,-0.08863560855388641,Rat,Rat_8.jpg
0.3757520318031311,0.524784505367279,1.863337928398323e-07,0.38351312279701233,0.4377001225948334,0.027454467490315437,0.41115882992744446,0.3622756898403168,0.01601647026836872,0.4496368169784546,0.32162952423095703,-0.005322644487023354,0.4851861298084259,0.3008973300457001,-0.024068817496299744,0.3956364691257477,0.29073935747146606,-0.022020481526851654,0.453388512134552,0.16144992411136627,-0.05038805678486824,0.4972583055496216,0.19368156790733337,-0.06016314774751663,0.5022265315055847,0.2523803114891052,-0.05883340910077095,0.40373215079307556,0.30904778838157654,-0.05324525013566017,0.5131412744522095,0.23306944966316223,-0.0796114057302475,0.5392542481422424,0.30208057165145874,-0.07950501143932343,0.520372748374939,0.35557645559310913,-0.07298275828361511,0.42205458879470825,0.3466886579990387,-0.08165080100297928,0.531460165977478,0.30724036693573,-0.0965401902794838,0.5416532754898071,0.37941405177116394,-0.07722215354442596,0.5159254670143127,0.4207656681537628,-0.060578603297472,0.44768214225769043,0.3934299051761627,-0.1084752231836319,0.5347692370414734,0.36696958541870117,-0.11127112060785294,0.5435657501220703,0.41297462582588196,-0.08944612741470337,0.5211389660835266,0.4422086477279663,-0.07113787531852722,0.5166123509407043,0.8267867565155029,-8.73870874329441e-07,0.4757276177406311,0.7519516944885254,0.011330762878060341,0.44848161935806274,0.6752853989601135,0.0020108092576265335,0.43226563930511475,0.6096540093421936,-0.01273051556199789,0.4267575144767761,0.5724818110466003,-0.026592090725898743,0.5185931921005249,0.5600669980049133,-0.009086888283491135,0.4534263610839844,0.4910953640937805,-0.03362012282013893,0.41352546215057373,0.5553870797157288,-0.044418953359127045,0.4095284640789032,0.6144757270812988,-0.0501260831952095,0.5361640453338623,0.5906313061714172,-0.030175425112247467,0.4343358278274536,0.5226600766181946,-0.050040699541568756,0.402940034866333,0.5961441397666931,-0.046735286712646484,0.4125966727733612,0.6510769128799438,-0.04287581518292427,0.5366702079772949,0.6393958330154419,-0.05218207463622093,0.43471282720565796,0.5655202865600586,-0.07416889071464539,0.4117166996002197,0.6370741724967957,-0.06099274009466171,0.4268572926521301,0.685657799243927,-0.05137236416339874,0.5249837040901184,0.6964583396911621,-0.0736364871263504,0.4247886538505554,0.6615015268325806,-0.09655516594648361,0.4033738672733307,0.7043238878250122,-0.09292047470808029,0.4149547219276428,0.7359889149665833,-0.0869298130273819,Rat,Rat_9.jpg
0.3577878475189209,0.5232862830162048,1.3158323497464153e-07,0.3912929892539978,0.4296882152557373,0.04866766184568405,0.42340585589408875,0.35489511489868164,0.047171637415885925,0.46105340123176575,0.3161933124065399,0.02960434928536415,0.4965367913246155,0.29909899830818176,0.014154140837490559,0.3981447219848633,0.27387186884880066,0.010089447721838951,0.4523512125015259,0.14815562963485718,-0.006121279671788216,0.49790745973587036,0.1782228797674179,-0.007371495012193918,0.507925808429718,0.23182955384254456,-0.002106989035382867,0.4011870324611664,0.2843189537525177,-0.03243976831436157,0.4931457042694092,0.16984650492668152,-0.04570136219263077,0.523453950881958,0.2240840494632721,-0.037735868245363235,0.5110310912132263,0.28225263953208923,-0.027614587917923927,0.41690579056739807,0.3192254602909088,-0.07173332571983337,0.5274322032928467,0.26092225313186646,-0.07587438076734543,0.5406908392906189,0.3289927840232849,-0.05074947327375412,0.5161634683609009,0.3713472783565521,-0.03271324932575226,0.4424983263015747,0.3705523908138275,-0.10872585326433182,0.5343911647796631,0.35310766100883484,-0.10483970493078232,0.5449574589729309,0.3997761011123657,-0.08080462366342545,0.522162139415741,0.4285804033279419,-0.06230848655104637,0.5124809145927429,0.8265942335128784,-1.0616124654916348e-06,0.47134819626808167,0.7221478819847107,0.031868692487478256,0.4472450911998749,0.632418692111969,0.027411211282014847,0.4351902902126312,0.5632672905921936,0.014883117750287056,0.4241448938846588,0.5237893462181091,-0.0017302113119512796,0.5006715059280396,0.5420956015586853,-0.020410053431987762,0.4481308162212372,0.44582071900367737,-0.04316757991909981,0.40214332938194275,0.4752511978149414,-0.052050743252038956,0.38050395250320435,0.5299276113510132,-0.056918080896139145,0.5210992097854614,0.573350727558136,-0.05094332993030548,0.42888304591178894,0.4974411725997925,-0.07059008628129959,0.3844600319862366,0.5652987360954285,-0.06790466606616974,0.37407857179641724,0.6429849863052368,-0.06754817813634872,0.5257835984230042,0.6289273500442505,-0.07844255119562149,0.434540718793869,0.5450652837753296,-0.09913132339715958,0.40050387382507324,0.6038467884063721,-0.09161239862442017,0.39646849036216736,0.6727079749107361,-0.0900077298283577,0.517547607421875,0.6907086372375488,-0.1023365929722786,0.41872745752334595,0.6507813334465027,-0.13250510394573212,0.38116687536239624,0.683235764503479,-0.13655126094818115,0.3724897503852844,0.725162923336029,-0.1382780820131302,Rat,Rat_10.jpg
0.3658866286277771,0.5120114088058472,1.2001284233065235e-07,0.3872390687465668,0.4174627661705017,0.037567902356386185,0.419847697019577,0.33820873498916626,0.03107728622853756,0.45939040184020996,0.2952226400375366,0.011755784973502159,0.49266815185546875,0.2738311290740967,-0.005116790998727083,0.39343926310539246,0.2588847875595093,-0.0020634750835597515,0.4529007077217102,0.13470059633255005,-0.025621134787797928,0.4968692362308502,0.16706517338752747,-0.03321385756134987,0.5022649765014648,0.2256944179534912,-0.03078383393585682,0.3964422345161438,0.27410006523132324,-0.03787095844745636,0.5066542625427246,0.1969408094882965,-0.057315926998853683,0.5257908701896667,0.2642691135406494,-0.05456623435020447,0.503770649433136,0.311236709356308,-0.046985331922769547,0.4136541485786438,0.3108792304992676,-0.0710202232003212,0.5252774953842163,0.2619182765483856,-0.08062990009784698,0.531721830368042,0.3308328092098236,-0.06039939448237419,0.5041218996047974,0.3689872622489929,-0.044466737657785416,0.43922191858291626,0.3579772412776947,-0.1022147536277771,0.5299637317657471,0.33988678455352783,-0.10206208378076553,0.5334212183952332,0.3883230984210968,-0.08054505288600922,0.5070430636405945,0.4151499569416046,-0.06338612735271454,0.5064280033111572,0.8401166200637817,-8.926405712372798e-07,0.46276748180389404,0.735850989818573,0.0057996297255158424,0.4417494535446167,0.6469429135322571,-0.0020206801127642393,0.4368649423122406,0.5804373025894165,-0.015077418647706509,0.43542686104774475,0.5356234312057495,-0.027800407260656357,0.5112948417663574,0.5715060830116272,-0.023140516132116318,0.4488867521286011,0.48957377672195435,-0.052651505917310715,0.40763789415359497,0.5457618832588196,-0.06436020135879517,0.39874011278152466,0.6026262044906616,-0.06719335168600082,0.5215628743171692,0.6032690405845642,-0.04006607457995415,0.4273102879524231,0.5280638337135315,-0.06836362183094025,0.39145737886428833,0.6013634204864502,-0.06891998648643494,0.3859861493110657,0.6651700139045715,-0.06476584821939468,0.5187554955482483,0.6489812135696411,-0.057673048228025436,0.41158127784729004,0.6030503511428833,-0.08712171763181686,0.38496389985084534,0.6836077570915222,-0.08112452179193497,0.3852698504924774,0.7491716146469116,-0.07208026200532913,0.5082340836524963,0.7024056315422058,-0.0743417739868164,0.42167818546295166,0.6561412215232849,-0.09779587388038635,0.38483425974845886,0.6733734011650085,-0.09646603465080261,0.3661457896232605,0.6947619318962097,-0.09112720936536789,Rat,Rat_11.jpg
0.3521265387535095,0.4943528175354004,-3.344164056784393e-08,0.37443286180496216,0.3969939351081848,0.05184194818139076,0.4062071740627289,0.321243017911911,0.05303319916129112,0.4459008276462555,0.28107982873916626,0.03808207809925079,0.4830213189125061,0.26328831911087036,0.024097865447402,0.3897641897201538,0.24993225932121277,0.016519198194146156,0.453789621591568,0.13414530456066132,-0.0005036219372414052,0.49395984411239624,0.16896405816078186,-0.006339157931506634,0.5010815858840942,0.22155198454856873,-0.004774648696184158,0.3946825861930847,0.2633514404296875,-0.025310775265097618,0.4958361089229584,0.17262783646583557,-0.03910049796104431,0.5194317102432251,0.23723626136779785,-0.036390967667102814,0.502942681312561,0.29190191626548767,-0.03080749697983265,0.4112636148929596,0.2967849373817444,-0.06359454244375229,0.5179743766784668,0.25306543707847595,-0.06882401555776596,0.5236647725105286,0.3284573256969452,-0.04903225600719452,0.4977879226207733,0.3727320432662964,-0.03463334962725639,0.43725135922431946,0.34333324432373047,-0.09880967438220978,0.524969756603241,0.32449454069137573,-0.0954895094037056,0.5268182158470154,0.37451356649398804,-0.07335978001356125,0.49986445903778076,0.4042481482028961,-0.056622203439474106,0.5111840963363647,0.8248016834259033,-7.507297254960577e-07,0.45734038949012756,0.7325371503829956,0.014183005318045616,0.43508583307266235,0.6468021869659424,0.003390910569578409,0.42049241065979004,0.5922673344612122,-0.012539979070425034,0.4054148495197296,0.5606935024261475,-0.03317471221089363,0.500030517578125,0.5503585338592529,-0.028450146317481995,0.4529275894165039,0.4373917579650879,-0.054392337799072266,0.41131478548049927,0.44240111112594604,-0.0681787058711052,0.3943501114845276,0.4733523726463318,-0.07658635079860687,0.515749990940094,0.5745758414268494,-0.051086291670799255,0.43006423115730286,0.47329387068748474,-0.07700629532337189,0.38088926672935486,0.5332438945770264,-0.07983372360467911,0.3643909990787506,0.6105898022651672,-0.08038325607776642,0.5141934752464294,0.621184229850769,-0.07259178906679153,0.43576088547706604,0.5107137560844421,-0.10340053588151932,0.39767301082611084,0.5538803339004517,-0.10359404236078262,0.3846731185913086,0.6151459813117981,-0.10277234762907028,0.49859264492988586,0.6744234561920166,-0.09108768403530121,0.40896931290626526,0.6320053935050964,-0.12306874245405197,0.3674194812774658,0.6674594879150391,-0.12737834453582764,0.34949585795402527,0.7133880853652954,-0.12819795310497284,Rat,Rat_12.jpg
0.35275375843048096,0.5141910910606384,1.625730874366127e-07,0.36895129084587097,0.42357540130615234,0.03545128181576729,0.40146487951278687,0.34803926944732666,0.02705925516784191,0.4398882985115051,0.30698636174201965,0.005934873130172491,0.47689878940582275,0.2847098708152771,-0.013208799995481968,0.3796115219593048,0.273756206035614,-0.008763518184423447,0.43592000007629395,0.15399904549121857,-0.036471180617809296,0.48392394185066223,0.18444609642028809,-0.04483608901500702,0.49665623903274536,0.24215856194496155,-0.0427943617105484,0.3842630982398987,0.28445908427238464,-0.045463524758815765,0.4749545753002167,0.1707371324300766,-0.06748872250318527,0.5041680335998535,0.23154009878635406,-0.060772038996219635,0.49436548352241516,0.2914593517780304,-0.04970606043934822,0.40011346340179443,0.3180255889892578,-0.08006846904754639,0.5093129873275757,0.26230892539024353,-0.09392575919628143,0.5193724036216736,0.3320511281490326,-0.07038536667823792,0.49642401933670044,0.3783368170261383,-0.05115649849176407,0.4246194362640381,0.3679802417755127,-0.11296873539686203,0.5125364661216736,0.35377639532089233,-0.11850813031196594,0.5196592211723328,0.40137094259262085,-0.09835399687290192,0.4981408715248108,0.4307612478733063,-0.08113569021224976,0.5000286102294922,0.7553051710128784,-7.906004384494736e-07,0.47897037863731384,0.6576684713363647,0.023240262642502785,0.45866745710372925,0.5697727203369141,0.019094275310635567,0.4484564960002899,0.49870675802230835,0.0059564621187746525,0.44688355922698975,0.4480639696121216,-0.00880349986255169,0.49040913581848145,0.5222000479698181,0.00015744035772513598,0.45705580711364746,0.42760902643203735,-0.025186708196997643,0.42801862955093384,0.46045956015586853,-0.03549124673008919,0.4220876097679138,0.5067028999328613,-0.039007365703582764,0.5024546384811401,0.5488883256912231,-0.024152440950274467,0.42179352045059204,0.48714679479599,-0.045194342732429504,0.39377838373184204,0.5580334663391113,-0.04260467737913132,0.4023866355419159,0.6178852915763855,-0.03862204775214195,0.5022386312484741,0.5945622324943542,-0.048845335841178894,0.4219120740890503,0.5260948538780212,-0.0707385465502739,0.3962152600288391,0.5948674082756042,-0.059625811874866486,0.40557727217674255,0.6576523184776306,-0.05043402314186096,0.4936448931694031,0.6472997069358826,-0.07117719948291779,0.41602033376693726,0.6090083718299866,-0.09706152975559235,0.38885411620140076,0.6557852625846863,-0.09546714276075363,0.3908763527870178,0.7048363089561462,-0.08987237513065338,Rat,Rat_13.jpg
0.35209327936172485,0.49764662981033325,2.1403124605967605e-07,0.36551207304000854,0.40254735946655273,0.03659522905945778,0.4009567201137543,0.3254096508026123,0.029451420530676842,0.44281402230262756,0.2904658615589142,0.009402146562933922,0.47922948002815247,0.2764023244380951,-0.009177357889711857,0.38947558403015137,0.24868634343147278,-0.0028110011480748653,0.4543665647506714,0.1279824823141098,-0.02450777217745781,0.4972183108329773,0.15549543499946594,-0.02987019531428814,0.4997400641441345,0.21261969208717346,-0.025664377957582474,0.39735543727874756,0.2632235288619995,-0.03720732033252716,0.5063657164573669,0.1892191618680954,-0.055623967200517654,0.5279814600944519,0.2535632848739624,-0.05120868980884552,0.5085965394973755,0.30654945969581604,-0.04187741503119469,0.41455990076065063,0.29858291149139404,-0.06890973448753357,0.5285230278968811,0.2578619420528412,-0.07692644000053406,0.5369550585746765,0.3268613815307617,-0.05583297088742256,0.5117870569229126,0.3710293471813202,-0.0388297364115715,0.4378260672092438,0.3470975458621979,-0.09874431788921356,0.5267404317855835,0.3309597373008728,-0.09884906560182571,0.5361304879188538,0.37912940979003906,-0.07848259061574936,0.5152027010917664,0.40982353687286377,-0.06123174726963043,0.0,0.0,0.0,0.0,0.0,0.0,0.0,0.0,0.0,0.0,0.0,0.0,0.0,0.0,0.0,0.0,0.0,0.0,0.0,0.0,0.0,0.0,0.0,0.0,0.0,0.0,0.0,0.0,0.0,0.0,0.0,0.0,0.0,0.0,0.0,0.0,0.0,0.0,0.0,0.0,0.0,0.0,0.0,0.0,0.0,0.0,0.0,0.0,0.0,0.0,0.0,0.0,0.0,0.0,0.0,0.0,0.0,0.0,0.0,0.0,0.0,0.0,0.0,Rat,Rat_14.jpg
0.3691827654838562,0.524503767490387,2.1338858857689047e-07,0.4108148515224457,0.4453854560852051,0.040344227105379105,0.447103351354599,0.36469247937202454,0.03269139677286148,0.47752565145492554,0.3094339072704315,0.010492240078747272,0.4938560128211975,0.27436521649360657,-0.009605975821614265,0.404007226228714,0.2650385797023773,-0.004905433859676123,0.44408997893333435,0.1353442221879959,-0.03507758304476738,0.49643656611442566,0.14783097803592682,-0.044932544231414795,0.5131191611289978,0.20228701829910278,-0.04303121566772461,0.39259982109069824,0.27878475189208984,-0.04626845195889473,0.4873473048210144,0.16078099608421326,-0.07316305488348007,0.5216802358627319,0.22086502611637115,-0.06915707886219025,0.5136100053787231,0.28266584873199463,-0.058279912918806076,0.40049126744270325,0.31681063771247864,-0.08515787124633789,0.5170634984970093,0.24854591488838196,-0.10269692540168762,0.5344565510749817,0.3223881423473358,-0.07844233512878418,0.5138704776763916,0.37364262342453003,-0.0571218766272068,0.4237889349460602,0.37134480476379395,-0.1219581738114357,0.5213000178337097,0.34458932280540466,-0.12655186653137207,0.532362699508667,0.395196795463562,-0.10294181853532791,0.5125937461853027,0.42999041080474854,-0.08280593901872635,0.0,0.0,0.0,0.0,0.0,0.0,0.0,0.0,0.0,0.0,0.0,0.0,0.0,0.0,0.0,0.0,0.0,0.0,0.0,0.0,0.0,0.0,0.0,0.0,0.0,0.0,0.0,0.0,0.0,0.0,0.0,0.0,0.0,0.0,0.0,0.0,0.0,0.0,0.0,0.0,0.0,0.0,0.0,0.0,0.0,0.0,0.0,0.0,0.0,0.0,0.0,0.0,0.0,0.0,0.0,0.0,0.0,0.0,0.0,0.0,0.0,0.0,0.0,Rat,Rat_15.jpg
0.3577456772327423,0.5536938905715942,2.899970183989353e-07,0.3866121172904968,0.46914440393447876,0.04642355442047119,0.42086803913116455,0.38980603218078613,0.04659024253487587,0.45183461904525757,0.34319379925727844,0.0308670774102211,0.4739285707473755,0.3140946626663208,0.017197662964463234,0.3978145718574524,0.29508736729621887,0.01714121736586094,0.43205901980400085,0.16836486756801605,-0.001133999670855701,0.4744699001312256,0.1748645156621933,-0.006692597176879644,0.487752228975296,0.2151484340429306,-0.003886427264660597,0.3904707431793213,0.30213651061058044,-0.023630211129784584,0.46454888582229614,0.17008256912231445,-0.039753738790750504,0.502339243888855,0.19882901012897491,-0.03741675987839699,0.5060533285140991,0.24426883459091187,-0.02980097569525242,0.3994280993938446,0.3345455229282379,-0.06174856424331665,0.5083127617835999,0.2600206136703491,-0.06985404342412949,0.5302186608314514,0.32296276092529297,-0.04834948852658272,0.5160816311836243,0.3682748079299927,-0.030138885602355003,0.4233444929122925,0.38521283864974976,-0.09760794788599014,0.5158647894859314,0.3599649965763092,-0.09550440311431885,0.5280969142913818,0.40633660554885864,-0.0734231024980545,0.5098384618759155,0.43691807985305786,-0.0549909770488739,0.0,0.0,0.0,0.0,0.0,0.0,0.0,0.0,0.0,0.0,0.0,0.0,0.0,0.0,0.0,0.0,0.0,0.0,0.0,0.0,0.0,0.0,0.0,0.0,0.0,0.0,0.0,0.0,0.0,0.0,0.0,0.0,0.0,0.0,0.0,0.0,0.0,0.0,0.0,0.0,0.0,0.0,0.0,0.0,0.0,0.0,0.0,0.0,0.0,0.0,0.0,0.0,0.0,0.0,0.0,0.0,0.0,0.0,0.0,0.0,0.0,0.0,0.0,Rat,Rat_16.jpg
0.3585992157459259,0.5464313626289368,3.0571760589737096e-07,0.3879797160625458,0.45421817898750305,0.04301847144961357,0.4244235157966614,0.3700633943080902,0.03517653048038483,0.4637640416622162,0.32591915130615234,0.011327887885272503,0.49419328570365906,0.2989060580730438,-0.011074591428041458,0.39788681268692017,0.26575973629951477,0.002051825635135174,0.46049460768699646,0.13162097334861755,-0.024633847177028656,0.5097559690475464,0.15927889943122864,-0.035002224147319794,0.5180439352989197,0.22249186038970947,-0.033784788101911545,0.396514356136322,0.28181493282318115,-0.04003414511680603,0.5124015212059021,0.1933826506137848,-0.06337793171405792,0.5432147979736328,0.27183496952056885,-0.06157682463526726,0.5263910889625549,0.3379737138748169,-0.052874594926834106,0.4115661382675171,0.3234347403049469,-0.07938531041145325,0.5368095636367798,0.26585549116134644,-0.09074719250202179,0.5525445342063904,0.34552913904190063,-0.06637223809957504,0.524600625038147,0.3971980810165405,-0.04627106711268425,0.4380115270614624,0.3787129819393158,-0.11695722490549088,0.5411691665649414,0.3563656210899353,-0.1175331324338913,0.554017186164856,0.40776580572128296,-0.09280682355165482,0.5292508602142334,0.44073405861854553,-0.07221108675003052,0.0,0.0,0.0,0.0,0.0,0.0,0.0,0.0,0.0,0.0,0.0,0.0,0.0,0.0,0.0,0.0,0.0,0.0,0.0,0.0,0.0,0.0,0.0,0.0,0.0,0.0,0.0,0.0,0.0,0.0,0.0,0.0,0.0,0.0,0.0,0.0,0.0,0.0,0.0,0.0,0.0,0.0,0.0,0.0,0.0,0.0,0.0,0.0,0.0,0.0,0.0,0.0,0.0,0.0,0.0,0.0,0.0,0.0,0.0,0.0,0.0,0.0,0.0,Rat,Rat_17.jpg
0.34866636991500854,0.5495535731315613,4.0216272623183613e-07,0.4066944718360901,0.4773545563220978,0.05860360711812973,0.4404485821723938,0.4031912386417389,0.06455940008163452,0.46829017996788025,0.36001646518707275,0.05150802060961723,0.48411664366722107,0.32304421067237854,0.03981149196624756,0.3998621702194214,0.29537180066108704,0.03965061157941818,0.4387655258178711,0.1699523776769638,0.026840435341000557,0.4770897626876831,0.1908431202173233,0.02203611470758915,0.48431396484375,0.2395443469285965,0.024928905069828033,0.39040377736091614,0.29753947257995605,-0.005922112613916397,0.4778948426246643,0.1898946762084961,-0.01896738074719906,0.5144479274749756,0.24282225966453552,-0.017577696591615677,0.510028600692749,0.3014543056488037,-0.010114205069839954,0.394008070230484,0.324665367603302,-0.048592034727334976,0.5031353235244751,0.25940757989883423,-0.052240040153265,0.5294319987297058,0.33205312490463257,-0.03012257255613804,0.5133492350578308,0.3807191252708435,-0.011484659276902676,0.414381206035614,0.3698083162307739,-0.08819051086902618,0.5075143575668335,0.3451090157032013,-0.08056864887475967,0.5282037258148193,0.3975686728954315,-0.05437738820910454,0.512012779712677,0.4335992932319641,-0.03301858529448509,0.0,0.0,0.0,0.0,0.0,0.0,0.0,0.0,0.0,0.0,0.0,0.0,0.0,0.0,0.0,0.0,0.0,0.0,0.0,0.0,0.0,0.0,0.0,0.0,0.0,0.0,0.0,0.0,0.0,0.0,0.0,0.0,0.0,0.0,0.0,0.0,0.0,0.0,0.0,0.0,0.0,0.0,0.0,0.0,0.0,0.0,0.0,0.0,0.0,0.0,0.0,0.0,0.0,0.0,0.0,0.0,0.0,0.0,0.0,0.0,0.0,0.0,0.0,Rat,Rat_18.jpg
0.3697051405906677,0.5155622959136963,2.465203010615369e-07,0.38042938709259033,0.4197728931903839,0.04044913500547409,0.41322818398475647,0.3375037908554077,0.03164436295628548,0.4536082446575165,0.3010549247264862,0.008659801445901394,0.4939101040363312,0.28717678785324097,-0.01322036050260067,0.4061529040336609,0.2614331543445587,-0.011320025660097599,0.47475165128707886,0.1252785474061966,-0.03752809017896652,0.5224094390869141,0.15520252287387848,-0.04484502971172333,0.5270950794219971,0.21555198729038239,-0.04148251935839653,0.4109994173049927,0.27886608242988586,-0.05016247183084488,0.5321863889694214,0.19926577806472778,-0.07430892437696457,0.5578922033309937,0.2725139856338501,-0.07150319963693619,0.5338403582572937,0.33038148283958435,-0.062165770679712296,0.4261271357536316,0.32129138708114624,-0.08527208119630814,0.5490727424621582,0.27100297808647156,-0.09828111529350281,0.558533787727356,0.3471163511276245,-0.07446839660406113,0.5260108709335327,0.39204680919647217,-0.05398961529135704,0.451174795627594,0.37400954961776733,-0.11792309582233429,0.5494878888130188,0.34813109040260315,-0.12119827419519424,0.5609084963798523,0.39832061529159546,-0.09742287546396255,0.5340592861175537,0.43072500824928284,-0.07661279290914536,0.5353887677192688,0.9391327500343323,-9.980816457755282e-07,0.46356549859046936,0.8229559659957886,0.009649134241044521,0.43959248065948486,0.7212609648704529,1.1756317235267488e-06,0.4326995015144348,0.6427258253097534,-0.01597604528069496,0.4384630620479584,0.5945630669593811,-0.03224017098546028,0.531051754951477,0.6162965297698975,-0.01750168576836586,0.47183799743652344,0.4945530593395233,-0.051079247146844864,0.4204621911048889,0.5591162443161011,-0.06569349765777588,0.41076773405075073,0.6318280696868896,-0.07145175337791443,0.5490531921386719,0.6409834027290344,-0.03844217211008072,0.4589748978614807,0.5169088244438171,-0.0719037726521492,0.41341540217399597,0.6054964661598206,-0.07051743566989899,0.4102989733219147,0.689732015132904,-0.06369910389184952,0.5504727363586426,0.6840265393257141,-0.06083153188228607,0.4501504898071289,0.5884208083152771,-0.09414872527122498,0.4230692684650421,0.6864965558052063,-0.08296407014131546,0.432148814201355,0.7676796913146973,-0.07064757496118546,0.5397824048995972,0.7346773147583008,-0.08226757496595383,0.4355335235595703,0.6863135099411011,-0.10973525792360306,0.409342885017395,0.7427988648414612,-0.1077347993850708,0.415141761302948,0.7943161725997925,-0.10183756798505783,Rat,Rat_19.jpg
0.36380255222320557,0.5188145637512207,2.670139451765863e-07,0.3759384751319885,0.42913880944252014,0.02630891464650631,0.4104752838611603,0.3474518060684204,0.01337231881916523,0.4530903100967407,0.3106398284435272,-0.0102980462834239,0.4884510040283203,0.2942143380641937,-0.03143077343702316,0.3944174647331238,0.27309441566467285,-0.021283579990267754,0.4635213017463684,0.14553029835224152,-0.053250208497047424,0.5092822313308716,0.17986008524894714,-0.06491221487522125,0.5115312337875366,0.2413611114025116,-0.06380052864551544,0.39808857440948486,0.29475006461143494,-0.05399817228317261,0.5129683613777161,0.20899730920791626,-0.084309883415699,0.5401940941810608,0.2805619239807129,-0.08536947518587112,0.5204790830612183,0.3364379405975342,-0.07804353535175323,0.41456541419029236,0.3402250111103058,-0.08440958708524704,0.5344882011413574,0.29117897152900696,-0.1052011251449585,0.5430854558944702,0.3644165098667145,-0.08641231805086136,0.5131693482398987,0.4048703610897064,-0.0679924413561821,0.4408096969127655,0.39605286717414856,-0.1131577268242836,0.5386649370193481,0.37413910031318665,-0.12050402164459229,0.5448723435401917,0.42191606760025024,-0.0991351306438446,0.5176681280136108,0.44959819316864014,-0.08020009100437164,0.5161005854606628,0.8394125699996948,-9.394755693392653e-07,0.46718886494636536,0.7450151443481445,0.017488621175289154,0.4458591341972351,0.6650247573852539,0.005400634836405516,0.4401547312736511,0.6075204610824585,-0.012741956859827042,0.4338020086288452,0.57541823387146,-0.034991305321455,0.5101560354232788,0.5730037093162537,-0.03433845564723015,0.4787139594554901,0.4417630732059479,-0.0682256892323494,0.4356648027896881,0.446912944316864,-0.08370251953601837,0.4115909934043884,0.48856285214424133,-0.09126729518175125,0.5352744460105896,0.6077834367752075,-0.05869517847895622,0.44955670833587646,0.5015829205513,-0.0862739086151123,0.3926045894622803,0.5666966438293457,-0.08256398886442184,0.37485769391059875,0.6473648548126221,-0.07828568667173386,0.5385146737098694,0.6653841137886047,-0.08203500509262085,0.4449896514415741,0.5616785287857056,-0.11027330160140991,0.3910078704357147,0.6244920492172241,-0.09614308178424835,0.3714221119880676,0.6996856927871704,-0.08590181916952133,0.5245742201805115,0.7263507843017578,-0.10329233109951019,0.42220741510391235,0.687950849533081,-0.13823764026165009,0.37313562631607056,0.7271232008934021,-0.13824380934238434,0.3522319197654724,0.7747015953063965,-0.13405533134937286,Rat,Rat_20.jpg
0.5262814164161682,0.8934636116027832,-1.08227197870292e-06,0.44931504130363464,0.7834569215774536,0.022985665127635002,0.428449422121048,0.6847811341285706,0.019563822075724602,0.42606574296951294,0.6096704006195068,0.008890724740922451,0.4259055554866791,0.5623862743377686,-0.004922952968627214,0.5141432881355286,0.5950236320495605,-0.014379352331161499,0.46486735343933105,0.4745890200138092,-0.0387483686208725,0.4134554862976074,0.5120770931243896,-0.0500936396420002,0.3939894437789917,0.571394145488739,-0.0554458312690258,0.5316432118415833,0.6240055561065674,-0.03843479976058006,0.4423769414424896,0.5135744214057922,-0.056791577488183975,0.3925277888774872,0.5788086652755737,-0.05372238531708717,0.38395944237709045,0.6555350422859192,-0.051762618124485016,0.5315923690795898,0.6731484532356262,-0.06169528514146805,0.4391578137874603,0.5657987594604492,-0.08471890538930893,0.3970448970794678,0.630314826965332,-0.07787742465734482,0.38802847266197205,0.7043463587760925,-0.07383944094181061,0.5174373388290405,0.728399395942688,-0.08228399604558945,0.419818639755249,0.6797941327095032,-0.1113111823797226,0.3796500563621521,0.7184377908706665,-0.11482381820678711,0.3652154207229614,0.7652714252471924,-0.11484876275062561,0.3424202799797058,0.43677055835723877,-2.334880520038496e-07,0.37098443508148193,0.3618793487548828,0.04338908940553665,0.407210111618042,0.3102576732635498,0.04058847948908806,0.44689035415649414,0.2976878583431244,0.02844846062362194,0.48207521438598633,0.295301616191864,0.017995016649365425,0.3981397747993469,0.26516491174697876,-0.03797021135687828,0.46796953678131104,0.12995728850364685,-0.06977789103984833,0.4993249773979187,0.16114820539951324,-0.07521479576826096,0.4975796043872833,0.20385125279426575,-0.06922844797372818,0.4056423008441925,0.2953605353832245,-0.07374372333288193,0.5243884921073914,0.20488324761390686,-0.11226493120193481,0.5379641056060791,0.27905136346817017,-0.10516422986984253,0.501872181892395,0.33513638377189636,-0.08761201053857803,0.4184904098510742,0.34762445092201233,-0.10345114767551422,0.5344260334968567,0.30191904306411743,-0.13012583553791046,0.5393842458724976,0.37916043400764465,-0.10336676239967346,0.5112376809120178,0.4176728129386902,-0.07445140182971954,0.44110167026519775,0.4078053832054138,-0.1284562349319458,0.5399926900863647,0.38024553656578064,-0.1452239751815796,0.5415419340133667,0.4259200692176819,-0.12388292700052261,0.5140371918678284,0.44895580410957336,-0.09961604326963425,Rat,Rat_21.jpg
0.34366491436958313,0.6156318783760071,3.007242241892527e-07,0.3752252757549286,0.522930383682251,0.04723095893859863,0.41575920581817627,0.43662217259407043,0.04211030155420303,0.4542124569416046,0.38265302777290344,0.020885318517684937,0.4854849874973297,0.34155696630477905,0.00204963656142354,0.3850579857826233,0.3397858738899231,0.0007541946251876652,0.43704137206077576,0.2101968675851822,-0.02577158249914646,0.49092674255371094,0.21224141120910645,-0.028945481404662132,0.5055191516876221,0.254326194524765,-0.021860133856534958,0.3790038526058197,0.3476254343986511,-0.045794855803251266,0.4774194359779358,0.19730108976364136,-0.07613592594861984,0.5174291133880615,0.24315470457077026,-0.067939892411232,0.5138641595840454,0.30801916122436523,-0.05007677152752876,0.39015859365463257,0.3891751170158386,-0.08932147920131683,0.5222280025482178,0.31302425265312195,-0.11227148771286011,0.5440835356712341,0.3869708776473999,-0.08591749519109726,0.5221300721168518,0.4371534585952759,-0.059083566069602966,0.41542184352874756,0.4552376866340637,-0.12965403497219086,0.525800347328186,0.4316444396972656,-0.13649223744869232,0.5366474390029907,0.4842744469642639,-0.11051228642463684,0.5105141997337341,0.5167537331581116,-0.08642540872097015,0.48090529441833496,0.8146569728851318,-2.7413923930907913e-07,0.45427143573760986,0.7035695314407349,0.021668119356036186,0.45142853260040283,0.5886456370353699,0.013768249191343784,0.45483896136283875,0.4971970021724701,-0.002471891464665532,0.44789692759513855,0.43102532625198364,-0.021899495273828506,0.47127825021743774,0.5074502229690552,-0.015895139425992966,0.4632519483566284,0.36059021949768066,-0.04967639222741127,0.45643043518066406,0.3386962413787842,-0.06253717094659805,0.46374255418777466,0.3425068259239197,-0.06766020506620407,0.49355679750442505,0.5317071676254272,-0.04457037150859833,0.47911858558654785,0.4271184206008911,-0.07831165939569473,0.4613969027996063,0.5219132900238037,-0.07227703183889389,0.4616813361644745,0.6027552485466003,-0.06272968649864197,0.5044806003570557,0.5910381078720093,-0.07310961186885834,0.4788926839828491,0.4806286096572876,-0.10834646224975586,0.4583955407142639,0.5824010968208313,-0.08720816671848297,0.46163469552993774,0.6663575768470764,-0.06802389770746231,0.5021632313728333,0.665677011013031,-0.09860534220933914,0.4640886187553406,0.6127145290374756,-0.13218428194522858,0.44668135046958923,0.680187463760376,-0.12303577363491058,0.451374888420105,0.7388496398925781,-0.11080901324748993,Rat,Rat_22.jpg
0.5273831486701965,0.9753668308258057,-1.0496097502254997e-06,0.45846396684646606,0.8572090268135071,0.016375726088881493,0.4405236840248108,0.7558048963546753,0.008861429989337921,0.43684619665145874,0.6811366081237793,-0.0058794040232896805,0.4309479594230652,0.6278254985809326,-0.02340340055525303,0.53187096118927,0.6559697389602661,-0.017354201525449753,0.47340697050094604,0.5370927453041077,-0.045202549546957016,0.4190763831138611,0.5752092599868774,-0.060268428176641464,0.39798903465270996,0.6341282725334167,-0.06772247701883316,0.5474821329116821,0.6824514865875244,-0.03993941470980644,0.4526296854019165,0.5654215216636658,-0.06152266263961792,0.4024038314819336,0.639064371585846,-0.06031551957130432,0.3902342915534973,0.7220630645751953,-0.058930546045303345,0.5447110533714294,0.7282118201255798,-0.06252776831388474,0.44558197259902954,0.6193650960922241,-0.0868937149643898,0.4087250530719757,0.6987754106521606,-0.07887917757034302,0.40041953325271606,0.7819632291793823,-0.07354889810085297,0.5284099578857422,0.7811804413795471,-0.08361835032701492,0.42842376232147217,0.7234240770339966,-0.11061407625675201,0.3877752721309662,0.7628374695777893,-0.11192826181650162,0.36952438950538635,0.8105998039245605,-0.11046801507472992,0.3726053833961487,0.5273853540420532,2.251011181897411e-07,0.3839838206768036,0.4414786696434021,0.02955593913793564,0.42861324548721313,0.3669337332248688,0.022057875990867615,0.4817620813846588,0.3283941149711609,0.005052750464528799,0.5218063592910767,0.30863386392593384,-0.010165012441575527,0.410943865776062,0.31044936180114746,-0.024518869817256927,0.4821256697177887,0.1836976706981659,-0.047315146774053574,0.5255226492881775,0.204731285572052,-0.05113743618130684,0.5305848121643066,0.2483341544866562,-0.047004856169223785,0.41890811920166016,0.3384760618209839,-0.05611012130975723,0.5421699285507202,0.28028440475463867,-0.08354673534631729,0.5659006834030151,0.3569324314594269,-0.08445120602846146,0.5396111607551575,0.4129335284233093,-0.07789114117622375,0.4337686598300934,0.38827311992645264,-0.08330149948596954,0.5567493438720703,0.351125031709671,-0.10240906476974487,0.5621567964553833,0.4254979193210602,-0.08375202119350433,0.5271924138069153,0.466396689414978,-0.06597846001386642,0.4582955837249756,0.44595348834991455,-0.10798118263483047,0.5571142435073853,0.42287641763687134,-0.11872760206460953,0.5634915232658386,0.4701536297798157,-0.10062264651060104,0.5335409641265869,0.4983118176460266,-0.08363234251737595,Rat,Rat_23.jpg
0.3475809097290039,0.5254637002944946,2.9054137939965585e-07,0.3587663769721985,0.42065221071243286,0.04359330236911774,0.39244920015335083,0.3354262709617615,0.035737257450819016,0.4325281083583832,0.2970072031021118,0.013021303340792656,0.47144725918769836,0.2745709717273712,-0.00926851388067007,0.39258715510368347,0.26188749074935913,-0.010229647159576416,0.460514098405838,0.12948425114154816,-0.032945066690444946,0.5115081071853638,0.15195396542549133,-0.0349368155002594,0.516724705696106,0.20238623023033142,-0.027768656611442566,0.3989420533180237,0.2794457972049713,-0.05247107893228531,0.5049810409545898,0.1692468523979187,-0.07504329830408096,0.5413033962249756,0.23252370953559875,-0.06674619019031525,0.5250154733657837,0.29485031962394714,-0.052778080105781555,0.41315290331840515,0.3241121470928192,-0.09091359376907349,0.5331060290336609,0.25275492668151855,-0.10231251269578934,0.5580412149429321,0.32217004895210266,-0.07649093866348267,0.5342997312545776,0.36870577931404114,-0.05492227524518967,0.4351203143596649,0.38344356417655945,-0.1266758292913437,0.5356326699256897,0.34485042095184326,-0.129919171333313,0.5554152131080627,0.39156386256217957,-0.10558632761240005,0.5319510698318481,0.4236544668674469,-0.08418528735637665,0.5209506750106812,0.7929914593696594,-1.0428058203615365e-06,0.4833015203475952,0.6824260354042053,0.02273048460483551,0.46493664383888245,0.5883297920227051,0.015475100837647915,0.46047064661979675,0.5039754509925842,-0.00012653211888391525,0.46096518635749817,0.44683459401130676,-0.019103804603219032,0.5231500267982483,0.5389859080314636,-0.019372157752513885,0.49655598402023315,0.40889972448349,-0.05265212804079056,0.4617008566856384,0.42808225750923157,-0.06751971691846848,0.4438440501689911,0.4729824960231781,-0.0725293830037117,0.5424684882164001,0.5776073932647705,-0.043562449514865875,0.44876357913017273,0.4843820333480835,-0.07076223939657211,0.40414413809776306,0.5547000169754028,-0.0672476589679718,0.3962253928184509,0.6293681859970093,-0.06246975064277649,0.5420807600021362,0.6330466866493225,-0.06700550019741058,0.4390864670276642,0.5561732649803162,-0.09657284617424011,0.40140560269355774,0.6370556354522705,-0.08458752185106277,0.3963225185871124,0.7161473035812378,-0.07349122315645218,0.5309863090515137,0.6895124912261963,-0.08763984590768814,0.4387334883213043,0.6418745517730713,-0.11896482855081558,0.40831947326660156,0.6960932016372681,-0.11584608256816864,0.4031183421611786,0.7539944648742676,-0.10829424113035202,Rat,Rat_24.jpg
0.35486042499542236,0.5077808499336243,2.3325141285113205e-07,0.36844414472579956,0.4068652391433716,0.03919843211770058,0.4057033956050873,0.3187129497528076,0.03195321187376976,0.45320236682891846,0.2800268530845642,0.010868179611861706,0.5022457242012024,0.2718716263771057,-0.007839726284146309,0.39167749881744385,0.2440681755542755,-0.0007918388582766056,0.4876578152179718,0.17019717395305634,-0.02360379695892334,0.5305092334747314,0.211245596408844,-0.027865301817655563,0.5303675532341003,0.26401403546333313,-0.023734338581562042,0.4008513391017914,0.25451767444610596,-0.039518073201179504,0.520875096321106,0.14427930116653442,-0.06084651127457619,0.553990364074707,0.2037930190563202,-0.054708436131477356,0.5424696207046509,0.2660491466522217,-0.04399226978421211,0.42067646980285645,0.29517191648483276,-0.07570821046829224,0.5533225536346436,0.23540058732032776,-0.0922355055809021,0.5639967918395996,0.31182661652565,-0.07296793162822723,0.5353517532348633,0.3599413335323334,-0.055465713143348694,0.45051026344299316,0.35561293363571167,-0.1091388687491417,0.5540634989738464,0.34917086362838745,-0.11554616689682007,0.5559117794036865,0.4021214246749878,-0.09709452092647552,0.5254921317100525,0.4313775897026062,-0.08115504682064056,0.5223603844642639,0.9174193143844604,-1.0644884014254785e-06,0.4568811357021332,0.8136000037193298,0.018897656351327896,0.43629100918769836,0.7154471278190613,0.012317921034991741,0.4322448670864105,0.6403666734695435,-0.0015158074675127864,0.42700356245040894,0.5944234132766724,-0.019237900152802467,0.5334777235984802,0.6154524087905884,-0.01744716800749302,0.4945439398288727,0.4733588695526123,-0.043450258672237396,0.447882741689682,0.47449374198913574,-0.05674954876303673,0.4260566532611847,0.506858229637146,-0.0638054609298706,0.5531359910964966,0.6419825553894043,-0.040017105638980865,0.45934221148490906,0.5144205689430237,-0.06232190132141113,0.3992973566055298,0.5850399136543274,-0.05950505658984184,0.37977850437164307,0.673052191734314,-0.05582117289304733,0.5508692264556885,0.6877817511558533,-0.062099337577819824,0.44730299711227417,0.5832975506782532,-0.08679262548685074,0.40017491579055786,0.6619312167167664,-0.07662327587604523,0.3852393627166748,0.746612012386322,-0.06868565827608109,0.5325918197631836,0.739608645439148,-0.08243591338396072,0.4311981797218323,0.6883820295333862,-0.10908656567335129,0.38330429792404175,0.7266062498092651,-0.10882634669542313,0.3591041564941406,0.7700861692428589,-0.1057969480752945,Rat,Rat_25.jpg
0.3564237356185913,0.485332727432251,2.1362514246447972e-07,0.3717353940010071,0.3807257115840912,0.04892674461007118,0.4086136817932129,0.2929130494594574,0.04237069934606552,0.45628002285957336,0.2533177137374878,0.01966434344649315,0.5016300082206726,0.2473372220993042,-0.0010001693153753877,0.3977746367454529,0.20924270153045654,6.432236114051193e-05,0.49314868450164795,0.10041935741901398,-0.01684432104229927,0.5437092185020447,0.13218580186367035,-0.01202575583010912,0.5402833819389343,0.1863352507352829,-0.0007128312136046588,0.40569472312927246,0.22614148259162903,-0.044296570122241974,0.5322452187538147,0.12008039653301239,-0.05781104415655136,0.5564995408058167,0.1858930140733719,-0.044204238802194595,0.5326472520828247,0.23890000581741333,-0.029383016750216484,0.423806369304657,0.2731686532497406,-0.08471793681383133,0.556991457939148,0.20811069011688232,-0.09179064631462097,0.5646958947181702,0.2820919156074524,-0.06233227625489235,0.5290489196777344,0.32178229093551636,-0.04081385210156441,0.450594961643219,0.33621904253959656,-0.12205948680639267,0.5595245361328125,0.3160693645477295,-0.11998121440410614,0.5634105801582336,0.3696540594100952,-0.0926385149359703,0.5268707871437073,0.39524272084236145,-0.0721924751996994,0.5336631536483765,0.8412514925003052,-1.1318414863126236e-06,0.4824784994125366,0.7493516802787781,0.01782248355448246,0.4531875252723694,0.6709464192390442,0.00629617040976882,0.4343649744987488,0.6136028170585632,-0.013048623688519001,0.4135148525238037,0.5832558870315552,-0.03566432744264603,0.5404833555221558,0.5702494382858276,-0.023545825853943825,0.4867650866508484,0.444428026676178,-0.05375497788190842,0.4331585168838501,0.49388688802719116,-0.06632786244153976,0.4124428629875183,0.5645720958709717,-0.0720042809844017,0.5603517293930054,0.598618745803833,-0.048112887889146805,0.4614238142967224,0.4800565838813782,-0.0721239447593689,0.4039316773414612,0.5585602521896362,-0.06563937664031982,0.38862118124961853,0.6445412039756775,-0.058951545506715775,0.5595909357070923,0.6463041305541992,-0.07244245707988739,0.4532814621925354,0.5341856479644775,-0.10002729296684265,0.4048649072647095,0.6191851496696472,-0.08564753830432892,0.3928825557231903,0.700028657913208,-0.07418013364076614,0.5440630912780762,0.703311562538147,-0.09502555429935455,0.4350046217441559,0.6589359045028687,-0.12923134863376617,0.38887423276901245,0.7095038294792175,-0.1285155713558197,0.37153780460357666,0.7595903873443604,-0.12287527322769165,Rat,Rat_26.jpg
0.3654901683330536,0.4949035346508026,2.9695161174458917e-07,0.37193045020103455,0.4035806655883789,0.025712620466947556,0.40945619344711304,0.31211352348327637,0.014053774066269398,0.4545876383781433,0.2617062032222748,-0.007841621525585651,0.5030937194824219,0.2417697310447693,-0.028150223195552826,0.39821746945381165,0.2451668232679367,-0.021574603393673897,0.4795745313167572,0.13266834616661072,-0.04326770827174187,0.5234261751174927,0.13782170414924622,-0.047902073711156845,0.5329969525337219,0.16329869627952576,-0.04619845747947693,0.40508368611335754,0.2633700966835022,-0.054072894155979156,0.5275158286094666,0.17520013451576233,-0.07868167757987976,0.5583279132843018,0.23991379141807556,-0.07890846580266953,0.5417078137397766,0.3032149374485016,-0.07374054938554764,0.42387697100639343,0.3092978000640869,-0.08336598426103592,0.5543724298477173,0.24204419553279877,-0.1017676591873169,0.5702797174453735,0.30825191736221313,-0.08784733712673187,0.5431016087532043,0.35460925102233887,-0.07537662237882614,0.4527735412120819,0.3649296760559082,-0.11059372127056122,0.5573502779006958,0.34191635251045227,-0.12146984040737152,0.565079391002655,0.3899060785770416,-0.10753153264522552,0.5355714559555054,0.4203784763813019,-0.09564103186130524,0.5193647742271423,0.9105114340782166,-1.12010366137838e-06,0.4651656150817871,0.8045649528503418,0.002583053894340992,0.45069053769111633,0.6999938488006592,-0.007070040795952082,0.45766186714172363,0.6106579303741455,-0.021566780284047127,0.46259915828704834,0.5483116507530212,-0.03633151948451996,0.553012490272522,0.5900424718856812,-0.02041398175060749,0.5131276249885559,0.45629239082336426,-0.05008571967482567,0.4654255509376526,0.4878194034099579,-0.0635976642370224,0.4487776756286621,0.5358082056045532,-0.07002615183591843,0.5774059891700745,0.6195533871650696,-0.03711092099547386,0.4714416563510895,0.5011518597602844,-0.0674554631114006,0.41174280643463135,0.5885613560676575,-0.06542026251554489,0.39419734477996826,0.6799819469451904,-0.05878714472055435,0.5787092447280884,0.6687281131744385,-0.05576397106051445,0.46322086453437805,0.5751301050186157,-0.08822876214981079,0.4163582921028137,0.6636234521865845,-0.07770942151546478,0.40293359756469727,0.7455097436904907,-0.06697995960712433,0.5628110766410828,0.7261067628860474,-0.07474606484174728,0.4502871036529541,0.6822872161865234,-0.1079765111207962,0.3958422839641571,0.7294220328330994,-0.10937308520078659,0.3703410029411316,0.7745326161384583,-0.10518687218427658,Rat,Rat_27.jpg
0.37610137462615967,0.52998286485672,3.382511408744904e-07,0.3945842683315277,0.43750786781311035,0.039390385150909424,0.43480435013771057,0.35081416368484497,0.02975345589220524,0.48152023553848267,0.3095811605453491,0.005856337025761604,0.5253048539161682,0.2936989665031433,-0.016312595456838608,0.414541095495224,0.2617950141429901,-0.01027221605181694,0.4992535412311554,0.13983909785747528,-0.035078950226306915,0.5515848994255066,0.16665434837341309,-0.03826720640063286,0.5579185485839844,0.2210840880870819,-0.032265737652778625,0.4171568751335144,0.27906283736228943,-0.05146448314189911,0.5441781282424927,0.1758519858121872,-0.07598868757486343,0.5786646008491516,0.2482423484325409,-0.06963962316513062,0.5621378421783447,0.312519907951355,-0.0572320930659771,0.43308860063552856,0.32667338848114014,-0.08934171497821808,0.5663142204284668,0.2575533092021942,-0.10582616180181503,0.5826556086540222,0.33111071586608887,-0.08047416806221008,0.5524753332138062,0.379150390625,-0.05863293260335922,0.46058982610702515,0.3893190622329712,-0.12483306974172592,0.5690406560897827,0.3633982539176941,-0.13015702366828918,0.5760985016822815,0.41477149724960327,-0.10567783564329147,0.5442401766777039,0.4469042420387268,-0.08518076688051224,0.5390961766242981,0.9506956338882446,-1.0249949582430418e-06,0.48019784688949585,0.8381903767585754,0.006179274525493383,0.4599347412586212,0.735607385635376,-0.003148037241771817,0.4581843614578247,0.6523450016975403,-0.018182961270213127,0.45432525873184204,0.5938988924026489,-0.03508274257183075,0.5553082227706909,0.6327755451202393,-0.024855555966496468,0.5305252075195312,0.48580336570739746,-0.057809703052043915,0.49091172218322754,0.47111427783966064,-0.07443787902593613,0.46858343482017517,0.4878094792366028,-0.08265778422355652,0.5756950378417969,0.6623305082321167,-0.04246898740530014,0.4808867275714874,0.5358616709709167,-0.07559166103601456,0.4225478768348694,0.613316535949707,-0.07543400675058365,0.40347176790237427,0.7056673765182495,-0.0706246867775917,0.5750738382339478,0.7114664912223816,-0.0612751767039299,0.46709179878234863,0.6170124411582947,-0.09349089860916138,0.4220471978187561,0.7032638788223267,-0.08321042358875275,0.40879184007644653,0.789342999458313,-0.07277891039848328,0.5597606897354126,0.7659369707107544,-0.08005660027265549,0.45641717314720154,0.7187384366989136,-0.10912292450666428,0.40900298953056335,0.7520806789398193,-0.1095888540148735,0.3865566849708557,0.7895018458366394,-0.10604478418827057,Rat,Rat_28.jpg
0.3632420599460602,0.5047324895858765,2.3029923568174127e-07,0.37287092208862305,0.3992359936237335,0.04270607978105545,0.4055245518684387,0.3091624677181244,0.03526470810174942,0.44893476366996765,0.26991087198257446,0.013794529251754284,0.49313217401504517,0.2638660967350006,-0.005051038693636656,0.4002223610877991,0.23465915024280548,-0.0059890300035476685,0.4870384633541107,0.11645227670669556,-0.024989543482661247,0.5368914604187012,0.14936701953411102,-0.022785106673836708,0.5351808667182922,0.20676882565021515,-0.013504844158887863,0.41083693504333496,0.25431758165359497,-0.046832915395498276,0.5247582197189331,0.13411496579647064,-0.06657302379608154,0.5563740730285645,0.19304530322551727,-0.057865846902132034,0.536392867565155,0.2519074082374573,-0.04532220587134361,0.42928633093833923,0.30122432112693787,-0.08410247415304184,0.5547882318496704,0.2218075692653656,-0.09625977277755737,0.5737063884735107,0.2870503067970276,-0.07325644791126251,0.5450419783592224,0.3306308090686798,-0.054628945887088776,0.45655226707458496,0.3650340735912323,-0.118399478495121,0.5612534880638123,0.3408331274986267,-0.12155219912528992,0.5703414082527161,0.3863992989063263,-0.09995002299547195,0.5377914905548096,0.41277390718460083,-0.08239691704511642,0.5368026494979858,0.9379101991653442,-7.812031981302425e-07,0.4702507555484772,0.8382148742675781,0.012005151249468327,0.44988539814949036,0.7377402186393738,0.005034388974308968,0.4428194463253021,0.6661738753318787,-0.007498078513890505,0.4337993264198303,0.6152901649475098,-0.02455427125096321,0.5369521975517273,0.6239323019981384,-0.022759096696972847,0.5071709752082825,0.48387694358825684,-0.05007828027009964,0.49071013927459717,0.4247285723686218,-0.06788367033004761,0.4839295744895935,0.3863498568534851,-0.08077886700630188,0.560117244720459,0.649398684501648,-0.04241233319044113,0.4601857364177704,0.5360305309295654,-0.073037289083004,0.40707314014434814,0.6058855056762695,-0.0737772211432457,0.3855906128883362,0.6887936592102051,-0.07083172351121902,0.5614740252494812,0.6971176266670227,-0.062059435993433,0.46258822083473206,0.5875137448310852,-0.09618864208459854,0.4157288670539856,0.6487405300140381,-0.0912170484662056,0.3910892903804779,0.7197211980819702,-0.08493131399154663,0.547656774520874,0.7526977062225342,-0.08033162355422974,0.44744405150413513,0.7157344222068787,-0.11453752964735031,0.3934432864189148,0.7505682110786438,-0.11933477222919464,0.35710304975509644,0.7893410325050354,-0.1192605122923851,Rat,Rat_29.jpg
0.3626190721988678,0.5173146724700928,3.283865623870952e-07,0.37393486499786377,0.42266565561294556,0.029558854177594185,0.4093305468559265,0.32785171270370483,0.017239078879356384,0.4538138806819916,0.27871522307395935,-0.007119284942746162,0.5009820461273193,0.26218798756599426,-0.030176887288689613,0.39827752113342285,0.2565387189388275,-0.02178141102194786,0.48002517223358154,0.13038037717342377,-0.04564468190073967,0.5285325646400452,0.14687854051589966,-0.05052043870091438,0.5387264490127563,0.19207480549812317,-0.047672808170318604,0.4033889174461365,0.2780041992664337,-0.05705203115940094,0.5328530073165894,0.19886529445648193,-0.08462759852409363,0.562339723110199,0.27827417850494385,-0.08469025045633316,0.5424324870109558,0.3449312150478363,-0.07805932313203812,0.42174702882766724,0.32732683420181274,-0.08875133842229843,0.5548578500747681,0.2651172876358032,-0.10702355206012726,0.5687982439994812,0.3441574275493622,-0.08841399848461151,0.5372750163078308,0.39655664563179016,-0.07189594954252243,0.44982197880744934,0.3859309256076813,-0.11852718144655228,0.5568169951438904,0.3540078401565552,-0.12879550457000732,0.568021297454834,0.4039047956466675,-0.11165869981050491,0.5399302840232849,0.4392812252044678,-0.09640556573867798,0.5591075420379639,0.9316892623901367,-1.0673082897483255e-06,0.482610285282135,0.826236367225647,0.015296949073672295,0.45785993337631226,0.7263885736465454,0.009607783518731594,0.4489714503288269,0.6458746194839478,-0.0029264141339808702,0.4376660883426666,0.5914592742919922,-0.019145624712109566,0.5515354871749878,0.6236295700073242,-0.023818541318178177,0.5063629746437073,0.48439061641693115,-0.05214773863554001,0.4637054204940796,0.4781349003314972,-0.06563141196966171,0.4442608952522278,0.5003408193588257,-0.0725933164358139,0.5737394690513611,0.6492209434509277,-0.04545110836625099,0.46834415197372437,0.5307077169418335,-0.0735102966427803,0.4101235270500183,0.6065273880958557,-0.07187411934137344,0.393611878156662,0.6955204010009766,-0.06767407804727554,0.5729252099990845,0.6987060904502869,-0.0668971911072731,0.4564912021160126,0.614449679851532,-0.09987977892160416,0.41015249490737915,0.700665295124054,-0.09314846247434616,0.3960192799568176,0.7879300713539124,-0.08533520251512527,0.5564597845077515,0.7554598450660706,-0.0866326242685318,0.4527624249458313,0.718201756477356,-0.1206745132803917,0.3997253477573395,0.7482823133468628,-0.12554976344108582,0.3666843771934509,0.7824229001998901,-0.1252819001674652,Rat,Rat_30.jpg
0.3502695858478546,0.5150712728500366,1.7101608307257266e-07,0.3680818974971771,0.4217512309551239,0.039665888994932175,0.4140544831752777,0.33676058053970337,0.030796222388744354,0.4679529666900635,0.2920721769332886,0.007753816898912191,0.5117971897125244,0.27653855085372925,-0.013794837519526482,0.39243143796920776,0.2544967532157898,-0.011604719795286655,0.48063644766807556,0.1250317096710205,-0.032730892300605774,0.5307928919792175,0.14504341781139374,-0.03182627260684967,0.5347645282745361,0.18990452587604523,-0.023688064888119698,0.3996201753616333,0.275348037481308,-0.05257728695869446,0.5304452776908875,0.17789417505264282,-0.07581978291273117,0.550999104976654,0.2463226020336151,-0.06746547669172287,0.5221554040908813,0.29814597964286804,-0.0542127825319767,0.41781702637672424,0.3222818076610565,-0.08991411328315735,0.55088871717453,0.27649980783462524,-0.10613317787647247,0.5495526790618896,0.3556321859359741,-0.08045343309640884,0.5110483765602112,0.3945539593696594,-0.0586550235748291,0.44593140482902527,0.3817717432975769,-0.12441200017929077,0.5542997121810913,0.3567861318588257,-0.12989436089992523,0.5504902601242065,0.4108668565750122,-0.10557200759649277,0.5124332308769226,0.43777287006378174,-0.08567043393850327,0.5493704676628113,0.9748797416687012,-6.850457339169225e-07,0.4758390188217163,0.8800166845321655,0.0041225263848900795,0.4479813575744629,0.7838202714920044,-0.005688636098057032,0.43702611327171326,0.7092970013618469,-0.020328463986516,0.4217633605003357,0.6528685688972473,-0.03837665542960167,0.5392047166824341,0.6586679816246033,-0.0256936214864254,0.5022018551826477,0.5205173492431641,-0.0533391498029232,0.48873937129974365,0.45873475074768066,-0.07131940871477127,0.4880683422088623,0.4167748987674713,-0.08417070657014847,0.5593145489692688,0.6824901700019836,-0.04309655725955963,0.44881120324134827,0.5732352137565613,-0.07605692744255066,0.39357417821884155,0.6413636207580566,-0.07707319408655167,0.3742773234844208,0.7240260243415833,-0.07367125898599625,0.5586094260215759,0.727184534072876,-0.0612587071955204,0.4451979398727417,0.6370211839675903,-0.09607221186161041,0.39963600039482117,0.7129225730895996,-0.08759821951389313,0.38302892446517944,0.7938439249992371,-0.07776262611150742,0.5452859997749329,0.7815392017364502,-0.0794866606593132,0.44159188866615295,0.7450799345970154,-0.11163201183080673,0.39260560274124146,0.7819485664367676,-0.11348987370729446,0.36510980129241943,0.8228024244308472,-0.11069691926240921,Rat,Rat_31.jpg
0.364175409078598,0.4474983215332031,2.633505573612638e-07,0.37185269594192505,0.36070916056632996,0.0369245819747448,0.40659457445144653,0.27231132984161377,0.02926332876086235,0.45029976963996887,0.22417588531970978,0.008147223852574825,0.4915294349193573,0.20228654146194458,-0.0113849937915802,0.39697664976119995,0.19316965341567993,-0.014525447972118855,0.47513437271118164,0.06921811401844025,-0.040073323994874954,0.524070143699646,0.09862750768661499,-0.04328202083706856,0.5243273377418518,0.1567533016204834,-0.0371771939098835,0.4043063819408417,0.21760419011116028,-0.05329196900129318,0.5250040888786316,0.13732768595218658,-0.08197267353534698,0.5511451363563538,0.21559014916419983,-0.07873665541410446,0.5260098576545715,0.2755914330482483,-0.0683780238032341,0.42050570249557495,0.26641589403152466,-0.08863489329814911,0.5475159287452698,0.2123284637928009,-0.1088075041770935,0.5561717748641968,0.29118719696998596,-0.0846577137708664,0.5221282839775085,0.33650442957878113,-0.0628238320350647,0.4452246427536011,0.3257422149181366,-0.12144206464290619,0.5490277409553528,0.2999550998210907,-0.13450437784194946,0.5586825609207153,0.35361313819885254,-0.11456724256277084,0.5296034812927246,0.3885226845741272,-0.09550308436155319,0.5261707901954651,0.8886820077896118,-1.0874497320401133e-06,0.4637215733528137,0.7798489332199097,0.013371165841817856,0.4446849822998047,0.6773947477340698,0.008090715855360031,0.44473856687545776,0.5883998870849609,-0.004264374729245901,0.44658663868904114,0.5290929079055786,-0.01903066597878933,0.5362838506698608,0.5768340229988098,-0.018650831654667854,0.5048836469650269,0.43453818559646606,-0.04508458077907562,0.4675237536430359,0.42923828959465027,-0.055481258779764175,0.45523467659950256,0.4463576674461365,-0.060320232063531876,0.5556533932685852,0.6025238037109375,-0.039352815598249435,0.45869144797325134,0.4775506258010864,-0.068649061024189,0.3994371294975281,0.5552149415016174,-0.06454680114984512,0.38167670369148254,0.6447349786758423,-0.0565909780561924,0.5554962158203125,0.6484901905059814,-0.060425519943237305,0.4376567304134369,0.575429379940033,-0.08966581523418427,0.3949868083000183,0.6667483448982239,-0.07807691395282745,0.3858857750892639,0.7529546022415161,-0.06652086973190308,0.5411330461502075,0.7008687257766724,-0.08080637454986572,0.4348810017108917,0.6560474038124084,-0.10563474893569946,0.3856585621833801,0.6934435963630676,-0.103854238986969,0.36208614706993103,0.7321599125862122,-0.09920547902584076,Rat,Rat_32.jpg
0.3391934037208557,0.5095627903938293,3.026922570370516e-07,0.37315040826797485,0.4149225652217865,0.05232737213373184,0.4062468409538269,0.33302655816078186,0.050979163497686386,0.4402068853378296,0.2905624508857727,0.03236948698759079,0.467490017414093,0.25745484232902527,0.01686241663992405,0.3855230510234833,0.23058107495307922,0.008213288150727749,0.4552088975906372,0.10614970326423645,-0.01098860614001751,0.5080159306526184,0.12882408499717712,-0.006778107490390539,0.5107345581054688,0.18420079350471497,0.005114512052386999,0.38258564472198486,0.2430223524570465,-0.03954846411943436,0.4817314147949219,0.09590961039066315,-0.06281953305006027,0.5190393328666687,0.14971384406089783,-0.051465392112731934,0.5053179264068604,0.21803069114685059,-0.032872024923563004,0.39279648661613464,0.2848034203052521,-0.08379890024662018,0.5129314064979553,0.18948915600776672,-0.09826028347015381,0.536952018737793,0.2577226459980011,-0.06640242040157318,0.5117484331130981,0.3071655035018921,-0.03760373592376709,0.41695505380630493,0.3481588065624237,-0.1250518262386322,0.5199174880981445,0.3072560727596283,-0.13004864752292633,0.5393816232681274,0.3559865951538086,-0.10252514481544495,0.5152461528778076,0.3915563225746155,-0.07689312100410461,0.5312824845314026,0.9230918884277344,-1.0113193411598331e-06,0.4491010010242462,0.7928804755210876,0.024750765413045883,0.4337504208087921,0.6853184700012207,0.02197912707924843,0.4297124445438385,0.605551540851593,0.010265174321830273,0.42826610803604126,0.5469297766685486,-0.004324165638536215,0.520954430103302,0.5774639844894409,-0.010731616988778114,0.47981929779052734,0.4292680025100708,-0.037465181201696396,0.4362489879131317,0.4336010813713074,-0.04904559627175331,0.4207623600959778,0.46369901299476624,-0.05538089945912361,0.5365712642669678,0.6032828092575073,-0.03682316839694977,0.43492135405540466,0.474637895822525,-0.06278814375400543,0.3834744691848755,0.5635657906532288,-0.05786610767245293,0.3776700496673584,0.6552836298942566,-0.05276327580213547,0.532759964466095,0.6498275995254517,-0.06281951069831848,0.42451781034469604,0.5428470373153687,-0.08988567441701889,0.3871341943740845,0.6324010491371155,-0.07739600539207458,0.3855164051055908,0.7178758978843689,-0.0686812698841095,0.5144872069358826,0.7037380933761597,-0.08689698576927185,0.4107940196990967,0.6527609825134277,-0.11357005685567856,0.370402991771698,0.6992915272712708,-0.11410163342952728,0.3582288324832916,0.7489160299301147,-0.11303507536649704,Rat,Rat_33.jpg
0.34614625573158264,0.5323510766029358,3.7878362491028383e-07,0.3901529014110565,0.452206015586853,0.044293902814388275,0.4297691285610199,0.36295416951179504,0.03744528442621231,0.46755385398864746,0.305769681930542,0.014706763438880444,0.4958238899707794,0.2627313733100891,-0.006234901025891304,0.3967169225215912,0.24391907453536987,-0.003155797254294157,0.47004634141921997,0.11631302535533905,-0.0305413119494915,0.5246272087097168,0.1371574103832245,-0.03669513389468193,0.5308056473731995,0.18822698295116425,-0.03166644647717476,0.38682904839515686,0.25567859411239624,-0.04743250831961632,0.5214664340019226,0.16048555076122284,-0.07513146102428436,0.550494372844696,0.24567587673664093,-0.07158077508211136,0.528596043586731,0.3143082857131958,-0.05895178020000458,0.3975786566734314,0.302603155374527,-0.08821415901184082,0.5383354425430298,0.2486225962638855,-0.10646916180849075,0.5521523356437683,0.33208805322647095,-0.08185291290283203,0.5176986455917358,0.3816412389278412,-0.058982886373996735,0.42179277539253235,0.36368367075920105,-0.12638002634048462,0.5340087413787842,0.3502136468887329,-0.1298299878835678,0.5445474982261658,0.4104331135749817,-0.10284788906574249,0.5151671171188354,0.44653087854385376,-0.07987020164728165,0.5488439798355103,0.9310474991798401,-7.921000815258594e-07,0.4689100384712219,0.8335213661193848,0.015863671898841858,0.43207481503486633,0.7370600700378418,0.005317009054124355,0.4103472828865051,0.6639695763587952,-0.01153087243437767,0.39501577615737915,0.6258882284164429,-0.03325212374329567,0.5220907330513,0.621684730052948,-0.028885219246149063,0.49378663301467896,0.46764200925827026,-0.061303917318582535,0.46029308438301086,0.4275670051574707,-0.07848010957241058,0.4418446719646454,0.4216235876083374,-0.0885908305644989,0.5460347533226013,0.6455764174461365,-0.051103077828884125,0.44749221205711365,0.5180559754371643,-0.08124829828739166,0.39162880182266235,0.5905493497848511,-0.07767243683338165,0.38016319274902344,0.6771811246871948,-0.07177024334669113,0.5473888516426086,0.6919369697570801,-0.07266907393932343,0.4391319453716278,0.5806476473808289,-0.10012511163949966,0.3946903944015503,0.6540607213973999,-0.08537252247333527,0.3880615234375,0.7279048562049866,-0.07430391758680344,0.5322918891906738,0.7461798191070557,-0.09289673715829849,0.420298308134079,0.7171164155006409,-0.12135176360607147,0.39624685049057007,0.7694516181945801,-0.12034525722265244,0.4058738946914673,0.8179075717926025,-0.11641217023134232,Rat,Rat_34.jpg
0.35643383860588074,0.42748039960861206,1.280382662116608e-07,0.38667193055152893,0.33574751019477844,0.058325521647930145,0.42053791880607605,0.254547119140625,0.05935490503907204,0.4609641134738922,0.21599166095256805,0.041892338544130325,0.4995249807834625,0.20048008859157562,0.02558363787829876,0.4059213697910309,0.17714044451713562,0.017520055174827576,0.47638803720474243,0.07353284955024719,0.0039200251922011375,0.5221584439277649,0.09598718583583832,0.008442032150924206,0.5244260430335999,0.1416683942079544,0.018585817888379097,0.40822312235832214,0.186547189950943,-0.031193530187010765,0.5102314352989197,0.05335777997970581,-0.0496368333697319,0.5403766632080078,0.10069744288921356,-0.03881418704986572,0.5275482535362244,0.16074398159980774,-0.023470450192689896,0.42255184054374695,0.2251042276620865,-0.07622800022363663,0.5491613745689392,0.15192639827728271,-0.08972927927970886,0.561662495136261,0.219771146774292,-0.06659280508756638,0.5325933694839478,0.2631102204322815,-0.04610053822398186,0.4484732151031494,0.2857872545719147,-0.11719515919685364,0.5542770028114319,0.2712123692035675,-0.12076420336961746,0.5589393973350525,0.32143762707710266,-0.0996050238609314,0.5293932557106018,0.351330041885376,-0.0815330222249031,0.541293740272522,0.8915337920188904,-9.365052164866938e-07,0.46349698305130005,0.7836840748786926,0.021104495972394943,0.4342929422855377,0.6823890805244446,0.014754971489310265,0.41507863998413086,0.6035373210906982,0.00014322574133984745,0.39286547899246216,0.5533331036567688,-0.01855050027370453,0.5282108783721924,0.5403558611869812,-0.00985712744295597,0.49395763874053955,0.3884943127632141,-0.03875143080949783,0.4506497085094452,0.37004613876342773,-0.056630220264196396,0.42994198203086853,0.390295147895813,-0.06777819991111755,0.5477492213249207,0.5644688606262207,-0.03486991301178932,0.4520999491214752,0.4347086548805237,-0.06046581640839577,0.39072006940841675,0.5059317946434021,-0.06030889227986336,0.3772903084754944,0.593049943447113,-0.0594262070953846,0.5461441278457642,0.6117123365402222,-0.05996909737586975,0.44856250286102295,0.4815745949745178,-0.08646940439939499,0.39642420411109924,0.5541653633117676,-0.07413939386606216,0.3858894109725952,0.6361678838729858,-0.06607719510793686,0.5287892818450928,0.6662999987602234,-0.08350939303636551,0.41853487491607666,0.6166654229164124,-0.11077594757080078,0.3846459984779358,0.6689327955245972,-0.11017685383558273,0.3855787515640259,0.7261066436767578,-0.10783368349075317,Rat,Rat_35.jpg
0.35265687108039856,0.4244823455810547,9.805616230096348e-08,0.3795554041862488,0.3277266323566437,0.06240079924464226,0.4153532087802887,0.25065693259239197,0.06377041339874268,0.45996221899986267,0.21786975860595703,0.04761297255754471,0.5014554262161255,0.2089626044034958,0.03368186205625534,0.40026289224624634,0.16833201050758362,0.010218864306807518,0.4821263253688812,0.05762219429016113,0.000292266282485798,0.5320683121681213,0.086390420794487,0.012375565245747566,0.5312594771385193,0.1382308006286621,0.027826445177197456,0.4059866666793823,0.1821451187133789,-0.03953559696674347,0.5228278040885925,0.04947529733181,-0.0579795241355896,0.5494202375411987,0.11118900775909424,-0.04152137413620949,0.5265909433364868,0.1721576750278473,-0.02115337923169136,0.4221343398094177,0.22463026642799377,-0.0840042382478714,0.5529477596282959,0.16113147139549255,-0.0954321026802063,0.560711681842804,0.2383372187614441,-0.06472819298505783,0.5261013507843018,0.27997273206710815,-0.03916706517338753,0.4493529200553894,0.2890505790710449,-0.1236761137843132,0.5566879510879517,0.27128565311431885,-0.12348855286836624,0.5582221150398254,0.3233332931995392,-0.09602035582065582,0.5223658680915833,0.34883710741996765,-0.07383526116609573,0.5369065999984741,0.8974368572235107,-8.815497380965098e-07,0.45242488384246826,0.7682515382766724,0.021412331610918045,0.4350219964981079,0.6628667712211609,0.016723431646823883,0.4262107312679291,0.5854082107543945,0.0026979062240570784,0.42114824056625366,0.5252083539962769,-0.014550711959600449,0.5233398079872131,0.5512717962265015,-0.006729024928063154,0.48219114542007446,0.3971211910247803,-0.034628525376319885,0.43552112579345703,0.3961256146430969,-0.04781803861260414,0.4177113175392151,0.42823219299316406,-0.05388918146491051,0.5366649031639099,0.5742549896240234,-0.03260478749871254,0.4451023042201996,0.4330770969390869,-0.06123269349336624,0.38618582487106323,0.4988386034965515,-0.06135621294379234,0.3709287643432617,0.5828937888145447,-0.057887203991413116,0.5345435738563538,0.616558313369751,-0.05897883325815201,0.4352562725543976,0.4820874035358429,-0.08965683728456497,0.381380170583725,0.5459494590759277,-0.08325126767158508,0.3626025319099426,0.6223786473274231,-0.07675842195749283,0.518882691860199,0.66767418384552,-0.0834985077381134,0.4162222743034363,0.6164401173591614,-0.11141794174909592,0.372158944606781,0.6631063222885132,-0.11380605399608612,0.35562559962272644,0.7198490500450134,-0.11290197819471359,Rat,Rat_36.jpg
0.3552725911140442,0.5049756765365601,3.0300918751891004e-07,0.3674982190132141,0.4105983376502991,0.03707398101687431,0.3995770514011383,0.3234013020992279,0.02635946497321129,0.44030964374542236,0.2774929404258728,0.0023177717812359333,0.4826813042163849,0.25436002016067505,-0.020421551540493965,0.39279019832611084,0.24579384922981262,-0.016293194144964218,0.4709544777870178,0.12365707755088806,-0.037880104035139084,0.5196397304534912,0.1400456428527832,-0.03887594863772392,0.5224844813346863,0.1846190094947815,-0.032188139855861664,0.3966096341609955,0.26586905121803284,-0.05477140471339226,0.5194827914237976,0.17422133684158325,-0.0774431899189949,0.5467976927757263,0.24313530325889587,-0.07082659006118774,0.5246516466140747,0.30041155219078064,-0.059035029262304306,0.41203370690345764,0.3156771659851074,-0.08942816406488419,0.5386624932289124,0.25010669231414795,-0.10184621810913086,0.5546471476554871,0.3215617835521698,-0.07691787928342819,0.5233496427536011,0.36409997940063477,-0.05683101713657379,0.4372395873069763,0.3758189082145691,-0.12176726013422012,0.5393232703208923,0.34306037425994873,-0.12642133235931396,0.5523287057876587,0.390888512134552,-0.10414684563875198,0.5240610241889954,0.4212152361869812,-0.0853765457868576,0.5241059064865112,0.9285336136817932,-7.367548846559657e-07,0.44330108165740967,0.8249232769012451,0.009821930900216103,0.42124515771865845,0.7253668904304504,0.0009632825385779142,0.41475915908813477,0.6541222333908081,-0.013057159259915352,0.41195040941238403,0.600917637348175,-0.03236079961061478,0.5173566341400146,0.613285481929779,-0.02729220874607563,0.48825186491012573,0.4788810610771179,-0.05361967906355858,0.4734850823879242,0.42201387882232666,-0.0713692456483841,0.4699707627296448,0.38182881474494934,-0.08503787219524384,0.5380569100379944,0.6402116417884827,-0.047198861837387085,0.43585729598999023,0.5243351459503174,-0.07921512424945831,0.3839118480682373,0.5981354117393494,-0.08118147403001785,0.36709824204444885,0.6828640699386597,-0.07886935025453568,0.5356815457344055,0.6869367361068726,-0.06666383892297745,0.43025901913642883,0.5836307406425476,-0.10358927398920059,0.39011406898498535,0.660251259803772,-0.09797325730323792,0.3760574460029602,0.7422357201576233,-0.09027964621782303,0.5188928246498108,0.7409577369689941,-0.08460019528865814,0.4135826826095581,0.6972861886024475,-0.1208672896027565,0.3673723340034485,0.7408239841461182,-0.12442954629659653,0.34222641587257385,0.7895451188087463,-0.12303787469863892,Rat,Rat_37.jpg
0.31175538897514343,0.6060234904289246,5.893306820325961e-07,0.3302384912967682,0.5048572421073914,0.027260420843958855,0.3789728283882141,0.42232784628868103,0.004454799462109804,0.43224307894706726,0.3871898353099823,-0.029378855600953102,0.4723457396030426,0.3739929497241974,-0.0575002022087574,0.36169907450675964,0.3384295105934143,-0.05235714837908745,0.4450015425682068,0.2110598087310791,-0.09542984515428543,0.5095351338386536,0.2529186010360718,-0.10003132373094559,0.5155483484268188,0.3205539584159851,-0.09134633839130402,0.3634188771247864,0.37639492750167847,-0.09539100527763367,0.47993505001068115,0.22593645751476288,-0.14353585243225098,0.5312668085098267,0.2889888882637024,-0.13264276087284088,0.5273802280426025,0.350407212972641,-0.111881785094738,0.3765508532524109,0.4448312222957611,-0.13510921597480774,0.5267291069030762,0.36728519201278687,-0.17052613198757172,0.5451025366783142,0.44273537397384644,-0.12767259776592255,0.5116105675697327,0.4783811569213867,-0.08792507648468018,0.40279048681259155,0.5334334969520569,-0.17345835268497467,0.5266936421394348,0.5131161212921143,-0.1902024745941162,0.5279821157455444,0.5542848110198975,-0.15588396787643433,0.48633310198783875,0.5640300512313843,-0.12377116829156876,0.5399173498153687,0.9391970634460449,-1.0749201919679763e-06,0.5186934471130371,0.7910776138305664,0.02567289024591446,0.4912914037704468,0.6739838123321533,0.021373586729168892,0.46635332703590393,0.5886449813842773,0.009266161359846592,0.4332781732082367,0.5361993312835693,-0.006393406540155411,0.5179743766784668,0.6468682289123535,-0.02426702156662941,0.45181891322135925,0.5420894026756287,-0.05309343710541725,0.3995891213417053,0.5792869925498962,-0.06362881511449814,0.3793691396713257,0.6339119672775269,-0.06940862536430359,0.5258951783180237,0.6953102350234985,-0.052846841514110565,0.41743284463882446,0.6235010027885437,-0.07357852905988693,0.37318146228790283,0.6854281425476074,-0.0696822926402092,0.37457090616226196,0.7413354516029358,-0.0709151104092598,0.5209038257598877,0.7638758420944214,-0.0800609439611435,0.41623908281326294,0.6932561993598938,-0.10634364932775497,0.380141943693161,0.7452455759048462,-0.0991138219833374,0.3859230875968933,0.7958114147186279,-0.09751775860786438,0.5087286233901978,0.8379630446434021,-0.10410940647125244,0.41251176595687866,0.8132006525993347,-0.13889047503471375,0.3676861822605133,0.8280930519104004,-0.14538195729255676,0.35171180963516235,0.8467984795570374,-0.14892718195915222,Rat,Rat_38.jpg
0.3644752502441406,0.49664175510406494,4.9850836347786753e-08,0.37601423263549805,0.4001581072807312,0.038959160447120667,0.4070960581302643,0.317910373210907,0.03573013097047806,0.4484254717826843,0.27773189544677734,0.019712092354893684,0.4901759624481201,0.2681015729904175,0.005815544631332159,0.3941096067428589,0.2561607360839844,-0.0008189980871975422,0.48092979192733765,0.14876124262809753,-0.016449859365820885,0.5174524188041687,0.18088477849960327,-0.014080503024160862,0.5124601125717163,0.22807252407073975,-0.005624538753181696,0.4064248502254486,0.27012160420417786,-0.03582723066210747,0.5123199820518494,0.15059950947761536,-0.04996681958436966,0.5337069630622864,0.20568685233592987,-0.04203757643699646,0.5128570199012756,0.25758758187294006,-0.031559526920318604,0.42699384689331055,0.3063208758831024,-0.06764225661754608,0.5391266345977783,0.23803848028182983,-0.07843088358640671,0.5432918667793274,0.30734962224960327,-0.06078168749809265,0.5149090886116028,0.3496324419975281,-0.046003736555576324,0.4542042911052704,0.3579654097557068,-0.09632587432861328,0.5462241172790527,0.3303087055683136,-0.10143020004034042,0.5494387149810791,0.380614697933197,-0.08493107557296753,0.521356463432312,0.4100298583507538,-0.0709836333990097,0.5190720558166504,0.9904354810714722,-7.483343438252632e-07,0.4384823143482208,0.869701623916626,0.01093009952455759,0.4237406849861145,0.7802707552909851,0.0030003772117197514,0.4113923907279968,0.703229546546936,-0.012522617354989052,0.3917028307914734,0.6398592591285706,-0.033571772277355194,0.5214455127716064,0.6580420136451721,-0.015242720022797585,0.495743989944458,0.5194400548934937,-0.037650421261787415,0.48689284920692444,0.45084697008132935,-0.05288725346326828,0.4884553551673889,0.3923943340778351,-0.06562748551368713,0.5381864905357361,0.6766905784606934,-0.03601772338151932,0.42301177978515625,0.5455700159072876,-0.06909618526697159,0.3602478802204132,0.6085555553436279,-0.07322978973388672,0.33218348026275635,0.6883891224861145,-0.07199154794216156,0.532284677028656,0.7143573760986328,-0.056821297854185104,0.4134581685066223,0.6080332398414612,-0.09278769046068192,0.3656168580055237,0.6853311657905579,-0.08960914611816406,0.3425595462322235,0.7699987888336182,-0.08286750316619873,0.5126937627792358,0.7624804377555847,-0.0768783688545227,0.4048580527305603,0.7150725722312927,-0.10974626243114471,0.35428738594055176,0.7514410018920898,-0.11516265571117401,0.3188605308532715,0.7959594130516052,-0.11507192999124527,Rat,Rat_39.jpg
0.3542637825012207,0.5424923896789551,2.5771993250600644e-07,0.40333092212677,0.4592374563217163,0.04104207456111908,0.4371052384376526,0.3851977288722992,0.03554929047822952,0.4698529839515686,0.34631359577178955,0.014013725332915783,0.4931890070438385,0.3129085898399353,-0.003779598278924823,0.3971429467201233,0.2684694528579712,0.010336073115468025,0.46736425161361694,0.14338165521621704,-0.014193360693752766,0.5128546357154846,0.18079078197479248,-0.022868184372782707,0.5111363530158997,0.23583681881427765,-0.020990746095776558,0.38633376359939575,0.2763903737068176,-0.03231200575828552,0.48035547137260437,0.13747230172157288,-0.057712581008672714,0.5242173075675964,0.19447164237499237,-0.06112222373485565,0.5144471526145935,0.25752851366996765,-0.056393373757600784,0.39346492290496826,0.3120943307876587,-0.07319425791501999,0.49899956583976746,0.18850888311862946,-0.08986636996269226,0.5387889742851257,0.2525656223297119,-0.0752405896782875,0.5230975151062012,0.2992851734161377,-0.06087973713874817,0.4185572862625122,0.36359167098999023,-0.11188541352748871,0.5185467004776001,0.31026992201805115,-0.11687406152486801,0.5379595756530762,0.3554169535636902,-0.09734717756509781,0.5101185441017151,0.38955438137054443,-0.08070740848779678,0.5261054635047913,0.9788820743560791,-8.388528272007534e-07,0.4468908905982971,0.8687775135040283,0.006655970122665167,0.43405330181121826,0.7731630206108093,-0.003069573547691107,0.42934101819992065,0.7001630067825317,-0.01678384840488434,0.4211651384830475,0.6364170908927917,-0.035499539226293564,0.5411892533302307,0.6476898789405823,-0.025293998420238495,0.5025256276130676,0.5073451995849609,-0.05499178543686867,0.4810032844543457,0.4405837655067444,-0.07833195477724075,0.46988046169281006,0.39201658964157104,-0.09527807682752609,0.5574520826339722,0.6703910827636719,-0.04350346326828003,0.4565545320510864,0.539623498916626,-0.07902513444423676,0.3861819803714752,0.5878864526748657,-0.08832111954689026,0.34489312767982483,0.6572191119194031,-0.09081796556711197,0.5526463389396667,0.7114948034286499,-0.061644263565540314,0.4551481604576111,0.572843611240387,-0.10302500426769257,0.39862653613090515,0.6142006516456604,-0.106866255402565,0.36232060194015503,0.6741224527359009,-0.1050046980381012,0.5310551524162292,0.7587713003158569,-0.07799360901117325,0.42225199937820435,0.712120771408081,-0.1167108342051506,0.3664245307445526,0.7532796859741211,-0.12383996695280075,0.3276256024837494,0.8008315563201904,-0.12429504841566086,Rat,Rat_40.jpg
0.33263930678367615,0.5257477760314941,2.7445148020888155e-07,0.3371438682079315,0.42154085636138916,0.03622115030884743,0.37064316868782043,0.3280617296695709,0.023634597659111023,0.4190814197063446,0.2771139144897461,-0.002780849114060402,0.4704231917858124,0.2537052035331726,-0.028499405831098557,0.3555116653442383,0.25628259778022766,-0.023208167403936386,0.44892406463623047,0.11627130210399628,-0.053556445986032486,0.503465473651886,0.11879535019397736,-0.057633135467767715,0.5066660642623901,0.15975679457187653,-0.050416938960552216,0.3683921992778778,0.28133833408355713,-0.06367284059524536,0.4822879433631897,0.14939124882221222,-0.09461324661970139,0.5321444272994995,0.19750642776489258,-0.08929091691970825,0.5256949663162231,0.2565530836582184,-0.07732139527797699,0.3916754722595215,0.3305263817310333,-0.10105929523706436,0.5093345642089844,0.20238402485847473,-0.11907028406858444,0.5533207654953003,0.25654247403144836,-0.09841850399971008,0.5414383411407471,0.31027907133102417,-0.07992687076330185,0.4234371781349182,0.3904504179954529,-0.1359005570411682,0.5199739336967468,0.30337977409362793,-0.14577323198318481,0.5517969131469727,0.33488279581069946,-0.12757053971290588,0.5383688807487488,0.37084147334098816,-0.11055108159780502,0.5370933413505554,0.9745355844497681,-7.724071338088834e-07,0.46521028876304626,0.8515557050704956,0.008053602650761604,0.4487125873565674,0.7473217844963074,0.0008205660851672292,0.4439290463924408,0.6626496315002441,-0.01288775447756052,0.4382038116455078,0.6015194654464722,-0.029924461618065834,0.5496105551719666,0.6380971670150757,-0.01620967499911785,0.5370381474494934,0.511698305606842,-0.04144977405667305,0.5233608484268188,0.44464319944381714,-0.057892054319381714,0.5171105861663818,0.3927423655986786,-0.07021132856607437,0.5643510818481445,0.665755569934845,-0.03657650202512741,0.4610837996006012,0.5448519587516785,-0.0672266036272049,0.4073253571987152,0.6143441200256348,-0.06751316040754318,0.38900086283683777,0.6927288770675659,-0.06337680667638779,0.5577616095542908,0.71060711145401,-0.05759371444582939,0.4353965222835541,0.6343693137168884,-0.08759612590074539,0.400856614112854,0.7221507430076599,-0.07723929733037949,0.39539340138435364,0.8031902313232422,-0.06647038459777832,0.5381322503089905,0.7644370794296265,-0.07889343053102493,0.4313333332538605,0.7048761248588562,-0.1046326756477356,0.3875272274017334,0.74211585521698,-0.10200221091508865,0.3661114573478699,0.7855093479156494,-0.09637323766946793,Rat,Rat_41.jpg
